!!!!SEGMENT: pl-cz--iii-319--001-001_just-franciszek-kasper--missa-in-g-kyrie.krn
!!!cenid: 17xx:901
!!!COM: Just, Franciszek Kasper
!!!COM-rismID: pe30098311
!!!CDT: 1717-1760
!!!CNT: Czech
!!!OPR: Missa in G
!!!OTL: Kyrie
!!!OMV: 001
!!!PDT: 1755
!!!AGN: Sacred; Mass
!!!YEC: Copyright 2022 Narodowy Instytut Fryderyka Chopina (https://polishscores.org)
!!!YEM: License CC-BY-4.0 (https://creativecommons.org/licenses/by/4.0)
!!!SMS-siglum: PL-CZ
!!!SMS-shelfmark: III-319
!!!SMS-shelfwork: 001-001 M
!!!SMS-variant: Organo PL-CZ III 319:026
!!!SMS-altvar: Organo. PL-CZ III 319:029
!!!NIFC-rismSourceID: 300000544
!!!NIFC-rismChildID: 300000544
!!!NIFC-islandoraID: pl-cz:37529
!!!URL-pdf-islandora: https://repozytorium.nifc.pl/islandora/object/pl-cz%3A37529/datastream/PDF/view
!!!URL-scan: https://polish.musicsources.pl/pl/lokalizacje/galeria/rekopisy/6899/1 @EN{Scan on Polish Music Sources Website} @PL{Skany w portalu Dziedzictwo Muzyki Polskiej w otwartym dostępie}
!!!IIIF:
!!!ONB-nifc: UWAGA: części Mszy: Kyrie, Gloria, Patrem, Sanctus, Osanna
!!!AIN: 1 alto 1 bass 2 cor 1 organ 1 soprn 1 tenor 1 tuba 1 viola 2 violn
!!!OMD:
!!!OMD-mod: Adagio
!!!key: G
**kern	**fba	**kern	**kern	**kern	**kern	**text	**mod-text	**kern	**text	**mod-text	**kern	**text	**mod-text	**kern	**text	**mod-text	**kern	**kern	**kern
*part11	*part11	*part10	*part9	*part8	*part7	*part7	*part7	*part6	*part6	*part6	*part5	*part5	*part5	*part4	*part4	*part4	*part3	*part2	*part1
*staff11	*staff1	*staff10	*staff9	*staff8	*staff7	*staff7	*staff7	*staff6	*staff6	*staff6	*staff5	*staff5	*staff5	*staff4	*staff4	*staff4	*staff3	*staff2	*staff1
*I"Organo.	*	*I"Alto Viola	*I"Violino Secundo	*I"Violino Primo	*I"Baſso.	*	*	*I"Tenore.	*	*	*I"Alto.	*	*	*I"Canto.	*	*	*I"Tuba Pastorali.	*I"Corno Secundo ex G.	*I"Corno Primo ex G.
*mI"Organo	*	*mI"Viola	*mI"Violino II	*mI"Violino I	*mI"Basso	*	*	*mI"Tenore	*	*	*mI"Alto	*	*	*mI"Soprano	*	*	*mI"Tuba Pastorali	*mI"Corno II in G	*mI"Corno I in G
*I'org	*	*I'a-vla	*I'vl 2	*I'vl 1	*I'B	*	*	*I'T	*	*	*I'A	*	*	*I'S	*	*	*I'tb	*I'cor 2 in G	*I'cor 1 in G
*Iorgan	*	*Iviola	*Ivioln	*Ivioln	*Ibass	*	*	*Itenor	*	*	*Ialto	*	*	*Isoprn	*	*	*Ituba	*Icor	*Icor
*ICklav	*	*ICstr	*ICstr	*ICstr	*ICvox	*	*	*ICvox	*	*	*ICvox	*	*	*ICvox	*	*	*ICbras	*ICbras	*ICbras
*IGcont	*	*	*	*	*IGcoro	*	*	*IGcoro	*	*	*IGcoro	*	*	*IGcoro	*	*	*	*	*
!	!	!LO:MO:mod=*tacet	!	!	!	!	!	!	!	!	!	!	!	!	!	!	!LO:MO:mod=*tacet	!	!
*	*	*null	*	*	*	*	*	*	*	*	*	*	*	*	*	*	*null	*	*
*clefF4	*	*clefC3	*clefG2	*clefG2	*clefF4	*	*	*clefC4	*	*	*clefC3	*	*	*clefC1	*	*	*clefF4	*clefG2	*clefG2
*	*	*	*	*	*	*	*	*mclefGv2	*	*	*mclefG2	*	*	*mclefG2	*	*	*	*	*
*	*	*	*	*	*	*	*	*	*	*	*	*	*	*	*	*	*	*ITrd3c5	*ITrd3c5
*k[f#]	*	*k[f#]	*k[f#]	*k[f#]	*k[f#]	*	*	*k[f#]	*	*	*k[f#]	*	*	*k[f#]	*	*	*k[f#]	*k[f#]	*k[f#]
*G:	*	*G:	*G:	*G:	*G:	*	*	*G:	*	*	*G:	*	*	*G:	*	*	*G:	*G:	*G:
*M4/4	*	*M4/4	*M4/4	*M4/4	*M4/4	*	*	*M4/4	*	*	*M4/4	*	*	*M4/4	*	*	*M4/4	*M4/4	*M4/4
*met(C.)	*	*met(c)	*met(c)	*met(C.)	*met(c)	*	*	*met(c)	*	*	*met(c)	*	*	*met(c)	*	*	*met(c)	*met(C.)	*met(C.)
*mmet(c)	*	*mmet(c)	*mmet(c)	*mmet(c)	*mmet(c)	*	*	*mmet(c)	*	*	*mmet(c)	*	*	*mmet(c)	*	*	*mmet(c)	*mmet(c)	*mmet(c)
=1	=1	=1	=1	=1	=1	=1	=1	=1	=1	=1	=1	=1	=1	=1	=1	=1	=1	=1	=1
!LO:TX:a:i:mod= :t=Adagio	!	!LO:TX:t=P:problem=partia wyłącznie w części "Domine Deus"	!LO:TX:a:i:mod= :t=Adagio	!LO:TX:a:i:mod= :t=Adagio.	!	!	!	!	!	!	!	!	!	!LO:TX:a:i:rj:mod= :t=Adagio	!	!	!LO:TX:t=P:problem=zgodnie z RISM "tb pastoralis missing"	!LO:TX:a:i:mod= :t=Adagio	!LO:TX:a:i:mod= :t=Adagio
4.G\	.	1ryy	4.b/	4.gg\	4.G\	Ky-	Ky-	4.d\	Ky-	Ky-	4.g\	Ky-	Ky-	4.b\	Ky-	Ky-	1ryy	4.g\	4.b\
8G\	.	.	8b/	8gg\	8G\	-ri-	-ri-	8d\	-ri-	-ri-	8g\	-ri-	-ri-	8b\	-ri-	-ri-	.	8g\	8b\
*	*	*	*	*2\right	*2\right	*	*	*2\right	*	*	*2\right	*	*	*2\right	*	*	*	*2\right	*2\right
2GG/	.	.	2b/	2gg\	2G\	-e	-e	2d\	-e	-e	2g\	-e	-e	2b\	-e	-e	.	2g\	2b\
*	*	*	*clefF4	*clefF4	*	*	*	*	*	*	*	*	*	*	*	*	*	*	*
=2	=2	=2	=2	=2	=2	=2	=2	=2	=2	=2	=2	=2	=2	=2	=2	=2	=2	=2	=2
!	!	!	!LO:MO:null:mod=*cue	!LO:MO:null:mod=*cue	!	!	!	!	!	!	!	!	!	!	!	!	!	!	!
*	*	*	*null	*null	*	*	*	*	*	*	*	*	*	*	*	*	*	*	*
!	!	!	!LO:MO:mod=!LO&colon;TX&colon;a&colon;t=Tba	!LO:MO:mod=!LO&colon;TX&colon;a&colon;t=Tba	!	!	!	!	!	!	!	!	!	!	!	!	!	!	!
!LO:TX:a:mod= :t=3	!	!	!LO:TX:t=P:problem=w tt. 2-5 partia poza skalą, prawdopodobnie pomocniczy zapis partii tb pastoralis	!LO:TX:t=P:problem=w tt. 2-5 partia poza skalą, prawdopodobnie pomocniczy zapis partii tb pastoralis	!	!	!	!	!	!	!	!	!	!	!	!	!	!LO:TX:a:mod= :t=3.	!LO:TX:a:mod= :t=3
0r	.	1ryy	8GG/L	8GG/L	0r	.	.	2r	.	.	0r	.	.	8gg\	Ky-	Ky-	1ryy	0r	0r
.	.	.	8GG/	8GG/	.	.	.	.	.	.	.	.	.	8dd\	-ri-	-ri-	.	.	.
.	.	.	8GG/	8GG/	.	.	.	.	.	.	.	.	.	4ee\	-e	-e	.	.	.
.	.	.	8GG/J	8GG/J	.	.	.	.	.	.	.	.	.	.	.	.	.	.	.
*	*	*	*	*	*	*	*	*	*	*	*	*	*	*	*ij	*ij	*	*	*
.	.	.	8GG/L	8GG/L	.	.	.	8g\	Ky-	Ky-	.	.	.	8dd\	Ky-	Ky-	.	.	.
.	.	.	8GG/	8GG/	.	.	.	8d\	-ri-	-ri-	.	.	.	8b\	-ri-	-ri-	.	.	.
.	.	.	8GG/	8GG/	.	.	.	4e\	-e	-e	.	.	.	4cc\	-e	-e	.	.	.
.	.	.	8GG/J	8GG/J	.	.	.	.	.	.	.	.	.	.	.	.	.	.	.
=3	=3	=3	=3	=3	=3	=3	=3	=3	=3	=3	=3	=3	=3	=3	=3	=3	=3	=3	=3
*	*	*	*	*	*	*	*	*	*ij	*ij	*	*	*	*	*	*	*	*	*
.	.	1ryy	8GG/L	8GG/L	.	.	.	8d\	Ky-	Ky-	.	.	.	8gg\	Ky-	Ky-	1ryy	.	.
.	.	.	8GG/	8GG/	.	.	.	8B\	-ri-	-ri-	.	.	.	8dd\	-ri-	-ri-	.	.	.
.	.	.	8GG/	8GG/	.	.	.	4c,<\	-e	-e	.	.	.	4ee\	-e	-e	.	.	.
.	.	.	8GG/J	8GG/J	.	.	.	.	.	.	.	.	.	.	.	.	.	.	.
*	*	*	*	*	*	*	*	*	*Xij	*Xij	*	*	*	*	*Xij	*Xij	*	*	*
.	.	.	8GG/L	8GG/L	.	.	.	8B\L	E-	e-	.	.	.	8dd\L	e-	e-	.	.	.
.	.	.	8GG/	8GG/	.	.	.	16B\L	.	.	.	.	.	16dd\L	.	.	.	.	.
.	.	.	.	.	.	.	.	16G\JJ	.	.	.	.	.	16b\JJ	.	.	.	.	.
.	.	.	8GG/	8GG/	.	.	.	8A/L	-lei-	-lei-	.	.	.	8cc\L	-ley-	-lei-	.	.	.
.	.	.	8GG/J	8GG/J	.	.	.	16A/L	.	.	.	.	.	16cc\L	.	.	.	.	.
.	.	.	.	.	.	.	.	16F#/JJ	.	.	.	.	.	16a\JJ	.	.	.	.	.
=4	=4	=4	=4	=4	=4	=4	=4	=4	=4	=4	=4	=4	=4	=4	=4	=4	=4	=4	=4
1r	.	1ryy	8GG/L	8GG/L	1r	.	.	4G,</	-son,	-son	1r	.	.	4b,<\	-son,	-son	1ryy	1r	1r
.	.	.	8GG/	8GG/	.	.	.	.	.	.	.	.	.	.	.	.	.	.	.
.	.	.	8GG/	8GG/	.	.	.	4c\	e-	e-	.	.	.	4ee\	e-	e-	.	.	.
.	.	.	8GG/J	8GG/J	.	.	.	.	.	.	.	.	.	.	.	.	.	.	.
.	.	.	8GG/L	8GG/L	.	.	.	8B\L	-lei-	-lei-	.	.	.	8dd\L	-ley-	-lei-	.	.	.
.	.	.	8GG/	8GG/	.	.	.	16B\L	.	.	.	.	.	16dd\L	.	.	.	.	.
.	.	.	.	.	.	.	.	16G\JJ	.	.	.	.	.	16b\JJ	.	.	.	.	.
.	.	.	8GG/	8GG/	.	.	.	8A/L	.	.	.	.	.	8cc\L	.	.	.	.	.
.	.	.	8GG/J	8GG/J	.	.	.	16A/L	.	.	.	.	.	16cc\L	.	.	.	.	.
.	.	.	.	.	.	.	.	16F#/JJ	.	.	.	.	.	16a\JJ	.	.	.	.	.
=5	=5	=5	=5	=5	=5	=5	=5	=5	=5	=5	=5	=5	=5	=5	=5	=5	=5	=5	=5
2r	.	1ryy	8GG/L	8GG/L	2r	.	.	8G,</	-son,	-son	2r	.	.	8b,<\	-son,	-son	1ryy	2r	2r
*	*	*	*	*	*	*	*	*	*ij	*ij	*	*	*	*	*	*	*	*	*
.	.	.	8AA/	8AA/	.	.	.	8B\	e-	e-	.	.	.	8dd\	e-	e-	.	.	.
.	.	.	8BB/	8BB/	.	.	.	8A\	-lei-	-lei-	.	.	.	8cc\	-ley-	-lei-	.	.	.
.	.	.	8C/J	8C/J	.	.	.	8G/	-son	-son	.	.	.	8b\	-son	-son	.	.	.
!	!	!	!LO:MO:null:mod=*Xcue	!LO:MO:null:mod=*Xcue	!	!	!	!	!	!	!	!	!	!	!	!	!	!	!
*	*	*	*null	*null	*	*	*	*	*	*	*	*	*	*	*	*	*	*	*
*	*	*	*clefG2	*clefG2	*	*	*	*	*Xij	*Xij	*	*	*	*	*	*	*	*	*
4.D/	.	.	4.ff# 4.a 4.d/	4.ff# 4.a 4.d/	4.d\	Ky-	Ky-	4.d\	Ky-	Ky-	4.a\	Ky-	Ky-	4.ff#\	Ky-	Ky-	.	4.d/	4.a\
8D/	.	.	8ff# 8a 8d/	8ff# 8a 8d/	8d\	-ri-	-ri-	8d\	-ri-	-ri-	8a\	-ri-	-ri-	8ff#\	-ri-	-ri-	.	8d/	8a\
=6	=6	=6	=6	=6	=6	=6	=6	=6	=6	=6	=6	=6	=6	=6	=6	=6	=6	=6	=6
2D/	.	1ryy	2ff# 2a 2d/	2ff# 2a 2d/	2D/	-e	-e	2d\	-e	-e	2a\	-e	-e	2ff#\	-e	-e	1ryy	2d/	2a\
*	*	*	*	*	*	*	*	*	*	*	*	*ij	*ij	*	*	*	*	*	*
2r	.	.	8d/L	8d/L	2r	.	.	2r	.	.	8dd\	Ky-	Ky-	2r	.	.	.	2r	2r
.	.	.	8d/	8d/	.	.	.	.	.	.	8a\	-ri-	-ri-	.	.	.	.	.	.
.	.	.	8d/	8d/	.	.	.	.	.	.	4b\	-e	-e	.	.	.	.	.	.
.	.	.	8d/J	8d/J	.	.	.	.	.	.	.	.	.	.	.	.	.	.	.
=7	=7	=7	=7	=7	=7	=7	=7	=7	=7	=7	=7	=7	=7	=7	=7	=7	=7	=7	=7
*	*	*	*	*	*	*ij	*ij	*	*	*	*	*	*	*	*	*	*	*	*
1r	.	1ryy	8d/L	8d/L	8d\	Ky-	Ky-	0r	.	.	8a\	Ky-	Ky-	0r	.	.	1ryy	0r	0r
.	.	.	8d/	8d/	8A\	-ri-	-ri-	.	.	.	8f#\	-ri-	-ri-	.	.	.	.	.	.
.	.	.	8d/	8d/	4B,<\	-e	-e	.	.	.	4g\	-e	-e	.	.	.	.	.	.
.	.	.	8d/J	8d/J	.	.	.	.	.	.	.	.	.	.	.	.	.	.	.
*	*	*	*	*	*	*	*	*	*	*	*	*Xij	*Xij	*	*	*	*	*	*
.	.	.	8d/L	8d/L	8A\	Ky-	Ky-	.	.	.	8dd\	Ky-	Ky-	.	.	.	.	.	.
.	.	.	8d/	8d/	8F#\	-ri-	-ri-	.	.	.	8a\	-ri-	-ri-	.	.	.	.	.	.
.	.	.	8d/	8d/	4G\	-e	-e	.	.	.	4b\	-e	-e	.	.	.	.	.	.
.	.	.	8d/J	8d/J	.	.	.	.	.	.	.	.	.	.	.	.	.	.	.
*	*	*	*	*	*	*Xij	*Xij	*	*	*	*	*	*	*	*	*	*	*	*
=8	=8	=8	=8	=8	=8	=8	=8	=8	=8	=8	=8	=8	=8	=8	=8	=8	=8	=8	=8
1r	.	1ryy	8d/L	8d/L	8F#\L	e-	e-	.	.	.	8a\L	e-	e-	.	.	.	1ryy	.	.
.	.	.	8d/	8d/	16F#\L	.	.	.	.	.	16a\L	.	.	.	.	.	.	.	.
.	.	.	.	.	16D\JJ	.	.	.	.	.	16f#\JJ	.	.	.	.	.	.	.	.
.	.	.	8d/	8d/	8E/L	-lei-	-lei-	.	.	.	8g\L	-lei-	-lei-	.	.	.	.	.	.
.	.	.	8d/J	8d/J	16E/L	.	.	.	.	.	16g\L	.	.	.	.	.	.	.	.
.	.	.	.	.	16AA/JJ	.	.	.	.	.	16e\JJ	.	.	.	.	.	.	.	.
!	!	!	!LO:LB:g=original	!LO:LB:g=original	!	!	!	!	!	!	!	!	!	!	!	!	!	!	!
.	.	.	8d/L	8d/L	4D,</	-son	-son	.	.	.	4f#,<\	-son	-son	.	.	.	.	.	.
.	.	.	8d/	8d/	.	.	.	.	.	.	.	.	.	.	.	.	.	.	.
.	.	.	8d/	8d/	4G\	e-	e-	.	.	.	4b\	e-	e-	.	.	.	.	.	.
.	.	.	8d/J	8d/J	.	.	.	.	.	.	.	.	.	.	.	.	.	.	.
=9	=9	=9	=9	=9	=9	=9	=9	=9	=9	=9	=9	=9	=9	=9	=9	=9	=9	=9	=9
2r	.	1ryy	8d/L	8d/L	8F#\L	-lei-	-lei-	1r	.	.	8a\L	-lei-	-lei-	1r	.	.	1ryy	1r	1r
.	.	.	8d/	8d/	16F#\L	.	.	.	.	.	16a\L	.	.	.	.	.	.	.	.
.	.	.	.	.	16D\JJ	.	.	.	.	.	16f#\JJ	.	.	.	.	.	.	.	.
.	.	.	8d/	8d/	8E\L	.	.	.	.	.	8g\L	.	.	.	.	.	.	.	.
.	.	.	8d/J	8d/J	16E\L	.	.	.	.	.	16g\L	.	.	.	.	.	.	.	.
.	.	.	.	.	16AA\JJ	.	.	.	.	.	16e\JJ	.	.	.	.	.	.	.	.
!	!	!	!	!	!	!	!	!	!	!	!LO:LB:g=original	!	!	!	!	!	!	!	!
8r	.	.	8d/L	8d/L	8D\	-son	-son	.	.	.	8f#\	-son	-son	.	.	.	.	.	.
8D\L	.	.	8d/	8d/	8D\	e-	e-	.	.	.	8a\	e-	e-	.	.	.	.	.	.
8E\	.	.	8d/	8d/	8E\L	-lei-	-lei-	.	.	.	8b\	-lei-	-lei-	.	.	.	.	.	.
8F#\J	.	.	8d/J	8d/J	8F#\J	.	.	.	.	.	8ccn\	-son	-son	.	.	.	.	.	.
!	!	!	!	!	!LO:LB:g=original	!LO:LB:g=original	!LO:LB:g=original	!	!	!	!	!	!	!LO:LB:g=original	!	!	!	!	!
=10	=10	=10	=10	=10	=10	=10	=10	=10	=10	=10	=10	=10	=10	=10	=10	=10	=10	=10	=10
!LO:TX:t=P:problem=mixed beam	!	!	!LO:TX:t=P:problem=mixed beam	!LO:TX:t=P:problem=mixed beam	!	!	!	!	!	!	!	!	!	!	!	!	!	!	!
8G\L	.	1ryy	8G/L	8G/L	8G,<\	-son,	-son	8r	.	.	4.b\	Ky-	Ky-	8r	.	.	1ryy	2r	8r
8GG/	.	.	8b\	8dd\	8GG/	e-	e-	8B\	e-	e-	.	.	.	8dd\	e-	e-	.	.	8g\L
8AA/	.	.	8cc\	8ee\	8AA/L	-lei-	-lei-	8c\	-lei-	-lei-	.	.	.	8ee\	-lei-	-lei-	.	.	8g\
!	!	!	!	!LO:N:acc=-	!	!	!	!	!	!	!	!	!	!	!	!	!	!	!
8BB/J	.	.	8dd\J	8ffn\J	8BB/J	.	.	8d\	-son	-son	8b\	-ri-	-ri-	8ffn,<\	-son,	-son,	.	.	8g\J
8C\L	.	.	8g/L	4.ee\	8C,</	-son,	-son	4.c\	Ky-	Ky-	8b\	-e	-e	4.ee\	Ky-	Ky-	.	8r	4g\
8E\	.	.	8g/	.	8E\	e-	e-	.	.	.	8g\	e-	e-	.	.	.	.	8g\L	.
8F#\	.	.	8a/	.	8F#\L	-lei-	-lei-	.	.	.	8a\	-lei-	-lei-	.	.	.	.	8g\	4r
8G\J	.	.	8b/J	8ee\	8G\J	.	.	8c\	-ri-	-ri-	8b\	-son	-son	8ee\	-ri-	-ri-	.	8g\J	.
!LO:LB:g=original	!	!	!	!	!	!	!	!	!	!	!	!	!	!	!	!	!	!	!
=11	=11	=11	=11	=11	=11	=11	=11	=11	=11	=11	=11	=11	=11	=11	=11	=11	=11	=11	=11
!LO:TX:t=P:problem=mixed beam	!	!	!	!	!	!	!	!	!	!	!	!	!	!	!	!	!	!	!
8A\L	.	1ryy	4.a/	8ee\L	8A,<\	-son,	-son	8c#X,<\	-e,	-e	4.a\	e-	e-	8ee,<\	-e,	-e	1ryy	4a\	8r
*	*	*	*	*	*	*ij	*ij	*	*	*	*	*	*	*	*	*	*	*	*
8AA/	.	.	.	8ee\	8AA/	e-	e-	8c#\	e-	e-	.	.	.	8ee\	e-	e-	.	.	8a\L
8BB/	.	.	.	8ff#X\	8BB/L	-lei-	-lei-	8d\	-lei-	-lei-	.	.	.	8ff#X\	-ley-	-lei-	.	4r	8a\
8C#X/J	.	.	8a/	8gg\J	8C#X/J	.	.	8e,<\	-son,	-son	8a\	-lei-	-lei-	8gg\	-son	-son	.	.	8a\J
8D\L	.	.	8a/L	4.ff#\	8D,</	-son,	-son	4.d\	Ky-	Ky-	8a,<\	-son,	-son,	4.ff#\	Ky-	Ky-	.	8r	4a\
*	*	*	*	*	*	*	*	*	*	*	*	*ij	*ij	*	*	*	*	*	*
8D\	.	.	8a/	.	8D/	e-	e-	.	.	.	8b\	e-	e-	.	.	.	.	8a\L	.
8E\	.	.	8b/	.	(8E\L	-lei-	-lei-	.	.	.	8cc\L	-lei-	-lei-	.	.	.	.	8a\	4r
8F#\J	.	.	8cc/J	8ff#\	8F#\J)	.	.	8d\	-ri-	-ri-	8a\J	.	.	8ff#\	-ri-	-ri-	.	8a\J	.
=12	=12	=12	=12	=12	=12	=12	=12	=12	=12	=12	=12	=12	=12	=12	=12	=12	=12	=12	=12
8G\L	.	1ryy	8b\L	8gg\L	8G,<\	-son,	-son	8d\	-e	-e	8b,<\	-son	-son	8gg\	-e	-e	1ryy	4.b\	4.dd\
*	*	*	*	*	*	*Xij	*Xij	*	*	*	*	*Xij	*Xij	*	*	*	*	*	*
8A\	.	.	8cc\	8ee\	8A\	e-	e-	8c\	e-	e-	8cc\	e-	e-	8ee\L	e-	e-	.	.	.
8B\	.	.	8b\	8dd\	8B\L	-lei-	-lei-	8d\	-lei-	-lei-	8b\L	-lei-	-lei-	8dd\	.	.	.	.	.
8c\J	.	.	8a\J	8cc\J	8c\J	.	.	8e\	-son	-son	8a\J	.	.	8cc\J	.	.	.	8a\	8cc\
!	!	!	!	!LO:TUP:a:problem=klamra łukowa	!	!	!	!	!	!	!	!	!	!	!	!	!	!	!LO:TUP:a:problem=klamra łukowa
4d\	.	.	4g/	12b/L	4d\	.	.	4.d\	Ky-	Ky-	4g\	.	.	8b\L	-lei-	-lei-	.	4g\	12b\L
.	.	.	.	12a/	.	.	.	.	.	.	.	.	.	.	.	.	.	.	12a\
.	.	.	.	.	.	.	.	.	.	.	.	.	.	16a\L	.	.	.	.	.
.	.	.	.	12g/J	.	.	.	.	.	.	.	.	.	.	.	.	.	.	12g\J
.	.	.	.	.	.	.	.	.	.	.	.	.	.	16g\JJ	.	.	.	.	.
!	!	!	!LO:SIC:s=4f#t	!	!	!	!	!	!	!	!	!	!	!	!	!	!	!	!
!	!	!	!LO:TX:a:mod= :t=t&colon;	!	!	!	!	!	!	!	!	!	!	!	!	!	!	!	!
4D/	.	.	4f#/	4a/	4D/	.	.	.	.	.	4f#\	-son	-son	4aT\	.	.	.	4d/	4a\
.	.	.	.	.	.	.	.	8d\	-ri-	-ri-	.	.	.	.	.	.	.	.	.
=13	=13	=13	=13	=13	=13	=13	=13	=13	=13	=13	=13	=13	=13	=13	=13	=13	=13	=13	=13
8G\L	.	1ryy	8b\L	8gg\L	8G,<\	-son,	-son	4d\	-e	-e	8b\	Ky-	Ky-	8g/	-son	-son	1ryy	4.b\	4.dd\
8A\	.	.	8cc\	8ee\	8A\	e-	e-	.	.	.	8cc\	-ri-	-ri-	8ee\L	e-	e-	.	.	.
8B\	.	.	8b\	8dd\	8B\L	-lei-	-lei-	8r	.	.	8b\L	-e	-e	8dd\	.	.	.	.	.
8c\J	.	.	8a\J	8cc\J	8c\J	.	.	8e\	e-	e-	8a\J	.	.	8cc\J	.	.	.	8a\	8cc\
!	!	!	!	!LO:TUP:a:problem=klamra łukowa	!	!	!	!	!	!	!	!	!	!	!	!	!	!	!LO:TUP:a:problem=klamra łukowa
4d\	.	.	4g/	12b/L	4d\	.	.	4.d\	-lei-	-lei-	4g\	[e]-	[e]-	8b\L	-lei-	-lei-	.	4g\	12b\L
.	.	.	.	12a/	.	.	.	.	.	.	.	.	.	.	.	.	.	.	12a\
.	.	.	.	.	.	.	.	.	.	.	.	.	.	16a\L	.	.	.	.	.
.	.	.	.	12g/J	.	.	.	.	.	.	.	.	.	.	.	.	.	.	12g\J
.	.	.	.	.	.	.	.	.	.	.	.	.	.	16g\JJ	.	.	.	.	.
4D/	.	.	4f#/	4a/	4D/	.	.	.	.	.	4f#\	-lei-	-lei-	4aT\	.	.	.	4d/	4a\
.	.	.	.	.	.	.	.	8d\	.	.	.	.	.	.	.	.	.	.	.
=14	=14	=14	=14	=14	=14	=14	=14	=14	=14	=14	=14	=14	=14	=14	=14	=14	=14	=14	=14
!LO:SIC:s=1GG	!	!	!	!	!	!	!	!	!	!	!	!	!	!	!	!	!	!	!
!LO:TX:b:i:t=tasto	!	!	!	!	!	!	!	!	!	!	!	!	!	!	!	!	!	!	!
1GGT	.	1ryy	4g/	4g/	4G,<\	-son,	-son	4d,<\	-son,	-son	4g\	-son,	-son	4g,</	-son,	-son	1ryy	4B/	4g\
.	.	.	4cc\	4ee\	4G\	e-	e-	4c\	e-	e-	4g\	e-	e-	4ee\	e-	e-	.	4r	4r
.	.	.	8b/L	8dd\L	2G\	-lei-	-lei-	8B\L	-lei-	-lei-	2g\	-lei-	-lei-	8dd\L	-ley-	-lei-	.	2r	2r
.	.	.	16b/L	16dd\L	.	.	.	16B\L	.	.	.	.	.	16dd\L	.	.	.	.	.
.	.	.	16g/JJ	16b\JJ	.	.	.	16G\JJ	.	.	.	.	.	16b\JJ	.	.	.	.	.
.	.	.	8a/L	8cc\L	.	.	.	8A/L	.	.	.	.	.	8cc\L	.	.	.	.	.
.	.	.	16a/L	16cc\L	.	.	.	16A/L	.	.	.	.	.	16cc\L	.	.	.	.	.
.	.	.	16f#/JJ	16a\JJ	.	.	.	16F#/JJ	.	.	.	.	.	16a\JJ	.	.	.	.	.
!	!	!	!	!	!	!	!	!	!	!	!LO:LB:g=original	!	!	!	!	!	!	!	!
=15	=15	=15	=15	=15	=15	=15	=15	=15	=15	=15	=15	=15	=15	=15	=15	=15	=15	=15	=15
1GG	.	1ryy	4g/	4b\	4G,<\	-son,	-son	4G,</	-son,	-son	4g,<\	-son,	-son	4b\	.	-son	1ryy	4g\	4g\
*	*	*	*	*	*	*	*	*	*	*	*	*ij	*ij	*	*	*	*	*	*
.	.	.	4ee\	4cc\	4G\	e-	e-	4e\	e-	e-	4g\	e-	e-	4cc\	-son	e-	.	4cc\	4ee\
!	!	!	!	!	!	!	!	!LO:LB:g=original	!	!	!	!	!	!	!	!	!	!	!
.	.	.	8dd\L	8b/L	2G\	-lei-	-lei-	8d\L	-lei-	-lei-	2g\	-lei-	-lei-	8b\L	e-	-lei-	.	8b\L	8dd\L
.	.	.	16dd\L	16b/L	.	.	.	16d\L	.	.	.	.	.	16b\L	.	.	.	16b\L	16dd\L
.	.	.	16b\JJ	16g/JJ	.	.	.	16B\JJ	.	.	.	.	.	16g\JJ	.	.	.	16g\JJ	16b\JJ
!	!	!	!	!	!	!	!	!	!	!	!	!	!	!	!	!	!	!	!LO:LB:g=original
.	.	.	8cc\L	8a/L	.	.	.	8c\L	.	.	.	.	.	8a\L	-ley-	.	.	8a\L	8cc\L
.	.	.	16cc\L	16a/L	.	.	.	16c\L	.	.	.	.	.	16a\L	.	.	.	16a\L	16cc\L
.	.	.	16a\JJ	16f#/JJ	.	.	.	16A\JJ	.	.	.	.	.	16f#\JJ	.	.	.	16f#\JJ	16a\JJ
!	!	!	!	!	!	!	!	!	!	!	!	!	!	!LO:LB:g=original	!	!	!	!LO:LB:g=original	!
=16	=16	=16	=16	=16	=16	=16	=16	=16	=16	=16	=16	=16	=16	=16	=16	=16	=16	=16	=16
1GG	.	1ryy	4b\	4g/	4G\	-son	-son	4B,<\	-son	-son	4g,<\	-son	-son	4g/	-ſon	-ſon	1ryy	4g\	4b\
*	*	*	*	*	*	*	*	*	*ij	*ij	*	*	*	*	*	*	*	*	*
.	.	.	4cc\	4ee\	4G\	e-	e-	4c\	e-	e-	4g\	e-	e-	4ee\	e-	e-	.	4g\	4g\
.	.	.	8b/L	8dd\L	2G\	-lei-	-lei-	8B\L	-lei-	-lei-	2g\	-lei-	-lei-	8dd\L	-ley-	-lei-	.	2g\	2g\
.	.	.	16b/L	16dd\L	.	.	.	16B\L	.	.	.	.	.	16dd\L	.	.	.	.	.
.	.	.	16g/JJ	16b\JJ	.	.	.	16G\JJ	.	.	.	.	.	16b\JJ	.	.	.	.	.
.	.	.	8a/L	8cc\L	.	.	.	8A/L	.	.	.	.	.	8cc\L	.	.	.	.	.
.	.	.	16a/L	16cc\L	.	.	.	16A/L	.	.	.	.	.	16cc\L	.	.	.	.	.
.	.	.	16f#/JJ	16a\JJ	.	.	.	16F#/JJ	.	.	.	.	.	16a\JJ	.	.	.	.	.
!	!	!	!LO:LB:g=original	!	!LO:LB:g=original	!	!	!	!	!	!	!	!	!	!	!	!	!	!
=17	=17	=17	=17	=17	=17	=17	=17	=17	=17	=17	=17	=17	=17	=17	=17	=17	=17	=17	=17
!	!	!	!	!LO:TX:t=P:problem=mixed beam	!	!	!	!	!	!	!	!	!	!	!	!	!	!	!
8GG/L	.	1ryy	8g/L	8b/L	8G,<\	-son,	-son	8G,</	-son	-son	8g,<\	-son,	-son	8b\	-son	-son	1ryy	8g\L	8g\L
*	*	*	*	*	*	*	*	*	*	*	*	*Xij	*Xij	*	*	*	*	*	*
8BB/	.	.	8b/	8gg\J	8B\	e-	e-	8B\	e-	e-	8g\	e-	e-	8gg\	e-	e-	.	8g\	8b\
!	!	!	!	!LO:TX:t=P:problem=mixed beam	!	!	!	!	!	!	!	!	!	!LO:SIC:s=8aL	!	!	!	!	!
8D/	.	.	8a/	8d/L	8d\L	-lei-	-lei-	8A\L	-lei-	-lei-	8f#\L	-lei-	-lei-	(8a\	-ley-	-lei-	.	8d\	8a\
!	!	!	!	!	!	!	!	!	!	!	!	!	!	!LO:SIC:s=8ff#J	!	!	!	!	!
8DD/J	.	.	8cc/J	8ff#\J	8D\J	.	.	8c\J	.	.	8a\J	.	.	8ff#\)	.	.	.	8d\J	8dd\J
!	!	!	!	!LO:TX:t=P:problem=mixed beam	!	!	!	!	!	!	!	!	!	!	!	!	!	!	!
8GG/L	.	.	8b/L	8gg\L	8G,<\	-son	-son	8B,<\	-son	-son	8b\	-son	-son	8gg\	-son	-son	.	16g\LL	8b\L
.	.	.	.	.	.	.	.	.	.	.	.	.	.	.	.	.	.	16d\	.
*	*	*	*	*	*	*	*	*	*Xij	*Xij	*	*	*	*	*	*	*	*	*
8BB/	.	.	8g/	8b/J	8GG/	e-	e-	8B\	e-	e-	8g\	e-	e-	8b\	e-	e-	.	16B\	8b\
.	.	.	.	.	.	.	.	.	.	.	.	.	.	.	.	.	.	16G\JJ	.
!	!	!	!	!LO:TX:t=P:problem=mixed beam	!	!	!	!	!	!	!	!	!	!LO:SIC:s=8aL	!	!	!	!	!
8D/	.	.	8a/	8d/L	8D/L	-lei-	-lei-	8A\L	-lei-	-lei-	8f#\L	-lei-	-lei-	(8a\	-ley-	-lei-	.	8d/L	8a\
!	!	!	!	!	!	!	!	!	!	!	!	!	!	!LO:SIC:s=8ff#J	!	!	!	!	!
8DD/J	.	.	8dd/J	8ff#\J	8DD/J	.	.	8d\J	.	.	8a\J	.	.	8ff#\)	.	.	.	8d/J	8dd\J
!	!	!	!	!LO:LB:g=original	!	!	!	!	!	!	!	!	!	!	!	!	!	!	!
=18	=18	=18	=18	=18	=18	=18	=18	=18	=18	=18	=18	=18	=18	=18	=18	=18	=18	=18	=18
1GG	.	1ryy	1b	1gg	1GG	-son.	-son.	1d	-son.	-son.	1b	-son	-son.	1gg	-son	-son.	1ryy	1G	1b
!LO:LB:g=original	!	!	!	!	!	!	!	!	!	!	!	!	!	!	!	!	!	!	!
=19||	=19||	=19||	=19||	=19||	=19||	=19||	=19||	=19||	=19||	=19||	=19||	=19||	=19||	=19||	=19||	=19||	=19||	=19||	=19||
!!!OMD:
!!!OMD-mod: Andante
*M12/8	*	*M12/8	*M12/8	*M12/8	*M12/8	*	*	*M12/8	*	*	*M12/8	*	*	*M12/8	*	*	*M12/8	*M12/8	*M12/8
!LO:TX:b:i:mod= :t=Allegro	!	!	!	!LO:TX:a:i:mod= :t=Andante	!	!	!	!LO:N:vis=2	!	!	!	!	!	!LO:SIC:s=8gL	!	!	!	!	!
4.G\	.	1.ryy	4r	8g/L	4G\	Ky-	Ky-	2.r	.	.	4r	.	.	(8g/L	Ky-	Ky-	1.ryy	4B/	4g\
!	!	!	!	!	!	!	!	!	!	!	!	!	!	!LO:SIC:s=8dJ	!	!	!	!	!
.	.	.	.	8d/	.	.	.	.	.	.	.	.	.	8d/J)	.	.	.	.	.
.	.	.	8r	8a/J	8G\	-ri-	-ri-	.	.	.	8r	.	.	8a\	-ri-	-ri-	.	8d/	8a\
!	!	!	!	!	!	!	!	!	!	!	!	!	!	!LO:SIC:s=8bL	!	!	!	!	!
!	!	!	!	!	!	!	!	!	!	!	!LO:SIC:s=8gL	!	!	!LO:TX:t=P:problem=mixed beam	!	!	!	!	!
4.G\	.	.	8g/L	8b/L	4G,<\	-e	-e	.	.	.	(8g\L	Ky-	Ky-	(8b\L	-[e]	-[e]	.	4g\	4b\
!	!	!	!LO:SIC:v:s=8d	!	!	!	!	!	!	!	!LO:SIC:s=8dJ	!	!	!LO:SIC:s=8dJ	!	!	!	!	!
.	.	.	8e/	8d/	.	.	.	.	.	.	8d\J)	.	.	8d/J)	.	.	.	.	.
.	.	.	8a/J	8cc/J	8G\	E-	e-	.	.	.	8a\	-ri-	-ri-	8cc\	e-	e-	.	8a\	8cc\
!	!	!	!	!	!	!	!	!LO:SIC:s=8GL	!	!	!	!	!	!	!	!	!	!	!
8G\L	.	.	8b/L	4.dd\	4.G\	-lei-	-lei-	(8G/L	Ky-	Ky-	4.b\	-e	-e	4.dd\	-ley-	-lei-	.	4.b\	4.dd\
!	!	!	!	!	!	!	!	!LO:SIC:s=8DJ	!	!	!	!	!	!	!	!	!	!	!
8D\	.	.	8g/	.	.	.	.	8D/J)	.	.	.	.	.	.	.	.	.	.	.
8BB\J	.	.	8a/J	.	.	.	.	8A/	-ri-	-ri-	.	.	.	.	.	.	.	.	.
!	!	!	!	!	!	!	!	!	!	!	!	!	!	!LO:N:vis=8	!	!	!	!LO:N:vis=8	!LO:N:vis=8
4GG/	.	.	4b\	4dd\	4G,<\	-son,	-son	4B,<\	-e	-e	4b\	e-	e-	4dd,<\	-son,	-son	.	4b\	4dd\
8r	.	.	8cc\	8gg\	8G\	e-	e-	8c\	e-	e-	8g\	.	.	8gg\	e-	e-	.	8cc\	8ee\
=20	=20	=20	=20	=20	=20	=20	=20	=20	=20	=20	=20	=20	=20	=20	=20	=20	=20	=20	=20
8G\L	.	1.ryy	8b/L	8dd\L	4.G\	-lei-	-lei-	8B\L	-lei-	-lei-	4.b\	-lei-	-lei-	8dd\L	-lei-	-lei-	1.ryy	4.b\	4.dd\
8D\	.	.	8g/	8b\	.	.	.	8G\	.	.	.	.	.	8b\	.	.	.	.	.
8BB\J	.	.	8a/J	8cc\J	.	.	.	8A\J	.	.	.	.	.	8cc\J	.	.	.	.	.
4GG/	.	.	4b\	4dd\	4G\	.	-son	4B,<\	-son,	-son	4b,<\	-son,	-son	4dd\	-son	-son	.	8b\	4dd\
.	.	.	.	.	.	.	.	.	.	.	.	.	.	.	.	.	.	4cc\	.
*	*	*	*	*	*	*	*	*	*ij	*ij	*	*	*	*	*	*	*	*	*
8r	.	.	8cc\	8gg\	8G,<\	-son,	e-	8c\	e-	e-	8b\	e-	e-	8gg\	e-	e-	.	.	8ee\
4.G\	.	.	8b\L	8dd\L	4.G\	e-	-lei-	8B\L	-lei-	-lei-	4.b\	-lei-	-lei-	8dd\L	-lei-	-lei-	.	8b\L	8dd\L
.	.	.	8g\	8b\	.	.	.	8G\	.	.	.	.	.	8b\	.	.	.	8g\	8b\
.	.	.	8a\J	8cc\J	.	.	.	8A\J	.	.	.	.	.	8cc\J	.	.	.	8a\J	8cc\J
!	!	!	!	!	!	!	!	!	!	!	!LO:N:vis=8	!	!	!	!	!	!	!	!
4.G\	.	.	4b\	4dd\	4G\	-lei-	-son	4B\	-son	-son	4b,<\	-son,	-son	4dd\	-son	-son	.	4b\	4dd\
*	*	*	*	*	*	*	*	*	*Xij	*Xij	*	*	*	*	*	*	*	*	*
.	.	.	8cc\	8gg\	8G\	.	[e-	8c\	e-	e-	8g\	e-	e-	8gg\	e-	e-	.	8cc\	8ee\
!	!	!	!	!	!	!	!	!LO:LB:g=original	!	!	!LO:LB:g=original	!	!	!LO:LB:g=original	!	!	!	!	!
=21	=21	=21	=21	=21	=21	=21	=21	=21	=21	=21	=21	=21	=21	=21	=21	=21	=21	=21	=21
!	!	!	!	!	!	!	!	!	!	!	!	!	!	!	!	!	!	!	!LO:N:vis=8.
4.G\	.	1.ryy	8b\L	8dd\L	2.G\	.	-lei]-	8B\L	-lei-	-lei-	2.b\	-lei-	-lei-	8dd\L	-ley-	-lei-	1.ryy	8b\L	8dd\L
.	.	.	8g\	8b\	.	.	.	8G\	.	.	.	.	.	8b\	.	.	.	8g\	8b\
.	.	.	8a\J	8cc\J	.	.	.	8A\J	.	.	.	.	.	8cc\J	.	.	.	8a\J	8cc\J
4.G\	.	.	8b\L	8dd\L	.	.	.	8B\L	.	.	.	.	.	8dd\L	.	.	.	8b\L	4dd\
.	.	.	8g\	8b\	.	.	.	8G\	.	.	.	.	.	8b\	.	.	.	8g\	.
!	!	!	!	!	!	!	!	!LO:SIC:v:s=8cJ	!	!	!	!	!	!	!	!	!	!	!
.	.	.	8cc\J	8ee\J	.	.	.	8A\J	.	.	.	.	.	8ee\J	.	.	.	8cc\J	8ee\
4.G\	.	.	8b\L	8dd\L	2.G\	.	.	8B\L	.	.	2.b\	.	.	8dd\L	.	.	.	8b\L	8dd\L
.	.	.	8g\	8b\	.	.	.	8G\	.	.	.	.	.	8b\	.	.	.	8g\	8b\
.	.	.	8a\J	8cc\J	.	.	.	8A\J	.	.	.	.	.	8cc\J	.	.	.	8a\J	8cc\J
4.G\	.	.	8b\L	8dd\L	.	.	.	8B\L	.	.	.	.	.	8dd\L	.	.	.	8b\L	8dd\L
.	.	.	8g\	8b\	.	.	.	8G\	.	.	.	.	.	8b\	.	.	.	8g\	8b\
.	.	.	8cc\J	8gg\J	.	.	.	8c\J	.	.	.	.	.	8gg\J	.	.	.	8cc\J	8ee\J
=22	=22	=22	=22	=22	=22	=22	=22	=22	=22	=22	=22	=22	=22	=22	=22	=22	=22	=22	=22
4.G\	.	1.ryy	8b\L	8dd\L	2.G\	.	.	8B\L	.	.	2.b,<\	-son,	-son	8dd\L	.	.	1.ryy	8b\L	8dd\L
.	.	.	8g\	8b\	.	.	.	8G\	.	.	.	.	.	8b\	.	.	.	8g\	8b\
.	.	.	8a\J	8cc\J	.	.	.	8A\J	.	.	.	.	.	8cc\J	.	.	.	8a\J	8cc\J
4.G\	.	.	8b\L	8dd\L	.	.	.	8B\L	.	.	.	.	.	8dd\L	.	.	.	8b\L	8dd\L
.	.	.	8g\	8b\	.	.	.	8G\	.	.	.	.	.	8b\	.	.	.	8g\	8b\
.	.	.	8cc\J	8ee\J	.	.	.	8c\J	.	.	.	.	.	8ee\J	.	.	.	8cc\J	8ee\J
4.G\	.	.	8b\L	8dd\L	4.G\	-son	-son	8B\L	.	.	8g\L	e-	e-	8dd\L	.	.	.	8b\L	8dd\L
.	.	.	8a\	8cc\	.	.	.	8A\	.	.	8a\	.	.	8cc\	.	.	.	8a\	8cc\
.	.	.	8g\J	8b\J	.	.	.	8G\J	.	.	8b\J	.	.	8b\J	.	.	.	8g\J	8b\J
4.G\	.	.	8b\L	8dd\L	8G\L	e-	e-	8B\L	.	.	8b\L	-lei-	-lei-	8dd\L	.	.	.	8b\L	8dd\L
.	.	.	8a\	8cc\	8B\	.	.	8A\	.	.	8a\J	.	.	8cc\	.	.	.	8a\	8cc\
.	.	.	8g\J	8b\J	8c\J	.	.	8G\J	.	.	8g\	-son	-son	8b\J	.	.	.	8g\J	8b\J
!	!	!	!	!	!LO:LB:g=original	!	!	!	!	!	!	!	!	!	!	!	!	!	!LO:LB:g=original
=23	=23	=23	=23	=23	=23	=23	=23	=23	=23	=23	=23	=23	=23	=23	=23	=23	=23	=23	=23
!	!	!	!	!	!	!	!	!	!	!	!LO:SIC:s=8dL	!	!	!	!	!	!	!	!
4.D\	.	1.ryy	4f#/	4a/	4d\	-lie-	-lei-	4F#/	.	.	(8d\L	Ky-	Ky-	4a\	.	.	1.ryy	4d/	4a\
!	!	!	!	!	!	!	!	!	!	!	!LO:SIC:s=8AJ	!	!	!	!	!	!	!	!
.	.	.	.	.	.	.	.	.	.	.	8A\J)	.	.	.	.	.	.	.	.
.	.	.	8f#/	8a/	8D,</	-son,	-son	8F#/	.	.	8e\	-ri-	-ri-	8a\	.	.	.	8d/	8a\
!	!	!	!	!	!LO:SIC:s=8DL	!	!	!	!	!	!	!	!	!	!	!	!	!	!
4.DD/	.	.	4f#/	4a/	(8D/L	Ky-	Ky-	4F#,</	-son,	-son	8f#\L	-e	-e	4a,<\	-son,	-son	.	4d/	4a\
!	!	!	!	!	!LO:SIC:s=8AAJ	!	!	!	!	!	!	!	!	!	!	!	!	!	!
.	.	.	.	.	8AA/J)	.	.	.	.	.	8d\J	.	.	.	.	.	.	.	.
.	.	.	8a/	8dd\	8E\	-ri-	-ri-	8A/	e-	e-	8g\	e-	e-	8dd\	e-	e-	.	8g\	8dd\
8D/L	.	.	4dd\	4ff# 4a 4d/	4F#\	-e	-e	4F#/	-lei-	-lei-	4a\	-lei-	-lei-	4a\	-le-	-lei-	.	4d/	4a\
8GG/	.	.	.	.	.	.	.	.	.	.	.	.	.	.	.	.	.	.	.
8E/J	.	.	8dd\	8ff# 8a 8d/	8F#\	e-	e-	8F#/	.	.	8a\	.	.	8a\	-y-	.	.	8d/	8a\
!	!	!	!LO:LB:g=original	!	!	!	!	!	!	!	!	!	!	!	!	!	!	!	!
4F#\	.	.	4dd\	4ff# 4a 4d/	4F#\	-lei-	-lei-	4F#,</	-son,	-son	4a\	-son	-son	4a,<\	-son,	-son	.	4d/	4a\
!	!	!	!LO:TX:t=P:problem=brak pauzy 8r	!	!	!	!	!	!	!	!	!	!	!	!	!	!	!	!
8r	.	.	8ryy	8r	8G\	-son	-son	8A/	e-	e-	8dd\	e-	e-	8dd\	e-	e-	.	8g\	8dd\
!	!	!	!	!	!	!	!	!	!	!	!	!	!	!	!	!	!	!LO:LB:g=original	!
=24	=24	=24	=24	=24	=24	=24	=24	=24	=24	=24	=24	=24	=24	=24	=24	=24	=24	=24	=24
8D/L	.	1.ryy	4.dd\	8ff#L 8a 8d/	8F#\L	e-	e-	4.A/	-lei-	-lei-	8a\L	-lei-	-lei-	4dd\	-ley-	-lei-	1.ryy	4d/	4a\
8AA/	.	.	.	8ff#J 8a 8d/	8D\	.	.	.	.	.	8f#\	.	.	.	.	.	.	.	.
8FF#/J	.	.	.	4ff# 4a 4d/	8E\J	.	.	.	.	.	8g\J	.	.	8dd\	.	.	.	8d/	8a\
4DD/	.	.	4r	.	4F#\	.	.	4.A/	.	.	4a,<\	-son,	-son	4dd\	.	.	.	4d/	4a\
.	.	.	.	8r	.	.	.	.	.	.	.	.	.	.	.	.	.	.	.
8r	.	.	8dd\	8ff#\	8G\	.	.	.	.	.	8dd\	e-	e-	8dd\	.	.	.	8g\	8dd\
*	*	*	*2\right	*	*	*	*	*	*	*	*	*	*	*	*	*	*	*	*
!LO:LB:g=original	!	!	!	!	!	!	!	!	!	!	!	!	!	!	!	!	!	!	!
8D/L	.	.	2.dd\	2.ff#\	8F#\L	-lei-	-lei-	4.A/	.	.	8a\L	-lei-	-lei-	4.dd\	.	.	.	4d/	4a\
8AA/	.	.	.	.	8D\	.	.	.	.	.	8f#\	.	.	.	.	.	.	.	.
8FF#/J	.	.	.	.	8E\J	.	.	.	.	.	8g\J	.	.	.	.	.	.	8d/	8a\
4DD/	.	.	.	.	4F#,<\	-son	-son	4.A/	.	.	4a,<\	-son,	-son	4.dd\	.	.	.	4d/	4a\
8r	.	.	.	.	8G\	e-	e-	.	.	.	8dd\	e-	e-	.	.	.	.	8d/	8a\
=25	=25	=25	=25	=25	=25	=25	=25	=25	=25	=25	=25	=25	=25	=25	=25	=25	=25	=25	=25
4.D\	.	1.ryy	2.dd\	2.ff#\	8F#\L	.	.	2.A/	.	.	8a\L	-lei-	-lei-	2.dd\	.	.	1.ryy	2.d/	2.a\
.	.	.	.	.	8D\	.	.	.	.	.	8f#\	.	.	.	.	.	.	.	.
.	.	.	.	.	8E\J	.	.	.	.	.	8g\J	.	.	.	.	.	.	.	.
4.DD/	.	.	.	.	8F#\L	.	.	.	.	.	8a\L	.	.	.	.	.	.	.	.
.	.	.	.	.	8D\	.	.	.	.	.	8f#\	.	.	.	.	.	.	.	.
.	.	.	.	.	8G\J	.	.	.	.	.	8b\J	.	.	.	.	.	.	.	.
!	!	!	!	!	!	!	!	!	!	!	!LO:LB:g=original	!	!	!	!	!	!	!	!
4.DD/	.	.	2.dd\	2.ff#\	8F#\L	.	.	2.A/	.	.	8a\L	.	.	2.dd\	.	.	.	2.d/	2.a\
.	.	.	.	.	8D\	.	.	.	.	.	8f#\	.	.	.	.	.	.	.	.
.	.	.	.	.	8E\J	.	.	.	.	.	8g\J	.	.	.	.	.	.	.	.
4.DD/	.	.	.	.	8F#\L	.	.	.	.	.	8a\L	.	.	.	.	.	.	.	.
.	.	.	.	.	8D\	.	.	.	.	.	8f#\	.	.	.	.	.	.	.	.
.	.	.	.	.	8G\J	.	.	.	.	.	8dd\J	.	.	.	.	.	.	.	.
!	!	!	!	!LO:LB:g=original	!	!	!	!	!	!	!	!	!	!	!	!	!	!	!
=26	=26	=26	=26	=26	=26	=26	=26	=26	=26	=26	=26	=26	=26	=26	=26	=26	=26	=26	=26
4.D\	.	1.ryy	2.dd\	2.ff#\	8F#\L	.	.	2.A/	.	.	8a\L	.	.	2.dd\	.	.	1.ryy	2.d/	2.a\
.	.	.	.	.	8D\	.	.	.	.	.	8f#\	.	.	.	.	.	.	.	.
.	.	.	.	.	8E\J	.	.	.	.	.	8g\J	.	.	.	.	.	.	.	.
4.DD/	.	.	.	.	8F#\L	.	.	.	.	.	8a\L	.	.	.	.	.	.	.	.
.	.	.	.	.	8D\	.	.	.	.	.	8f#\	.	.	.	.	.	.	.	.
.	.	.	.	.	8G\J	.	.	.	.	.	8b\J	.	.	.	.	.	.	.	.
4.DD/	.	.	2.dd\	2.ff#\	8F#\L	.	.	2.A/	-son	-son	8a\L	.	.	2.dd\	-son	-son	.	2.d/	2.a\
.	.	.	.	.	8E\	.	.	.	.	.	8g\	.	.	.	.	.	.	.	.
!	!	!	!	!	!	!	!	!	!	!	!LO:SIC:s=8f#J	!	!	!	!	!	!	!	!
.	.	.	.	.	8D\J	.	.	.	.	.	8f#\	.	.	.	.	.	.	.	.
!	!	!	!	!	!	!	!	!	!	!	!LO:SIC:s=8eL	!	!	!	!	!	!	!	!
4.DD/	.	.	.	.	8C/L	.	.	.	.	.	8e\	.	.	.	.	.	.	.	.
.	.	.	.	.	8BB/	.	.	.	.	.	8d\	.	.	.	.	.	.	.	.
.	.	.	.	.	8AA/J	.	.	.	.	.	8c\J	-son	-son	.	.	.	.	.	.
=27	=27	=27	=27	=27	=27	=27	=27	=27	=27	=27	=27	=27	=27	=27	=27	=27	=27	=27	=27
!	!	!	!	!	!	!	!	!LO:N:vis=2	!	!	!	!	!	!	!	!	!	!	!LO:TX:t=P:problem=mixed beam
4.D\	.	1.ryy	4.b/	8g/L	4.D\	-lei-	-lei-	2.r	.	.	4B/	Ky-	Ky-	8g/L	Ky-	Ky-	1.ryy	8B/L	8g\L
.	.	.	.	8d/	.	.	.	.	.	.	.	.	.	8d/J	.	.	.	8G/	8d/
.	.	.	.	8a/J	.	.	.	.	.	.	8B/	-ri-	-ri-	8a\	-ri-	-ri-	.	8d/J	8dd\J
4.D\	.	.	8g/L	8b/L	4.D\	-son	-son	.	.	.	4B/	-e	-e	8b\L	-e	-e	.	8g\L	8b\L
!	!	!	!	!	!	!	!	!	!	!	!	!	!	!LO:SIC:s=8gJ	!	!	!	!	!
.	.	.	8d/	8g/	.	.	.	.	.	.	.	.	.	8g\	.	.	.	8d\	8g\
!	!	!	!	!	!	!	!	!	!	!	!	!	!	!LO:SIC:s=8cc	!	!	!	!	!
.	.	.	8a/J	8cc/J	.	.	.	.	.	.	8b\	e-	e-	8cc\J	e-	e-	.	8a\J	8cc\J
8D\L	.	.	8b\L	4dd\	8D\L	e-	e-	8G/L	Ky-	Ky-	4b\	-lei-	-lei-	4dd\	-lei-	-lei-	.	4b\	4dd\
8E\	.	.	8g\	.	8E\	.	.	8D/J	.	.	.	.	.	.	.	.	.	.	.
8F#\J	.	.	8a\J	8dd\	8F#\J	.	.	8A\	-ri-	-ri-	8b\	.	.	8dd\	.	.	.	8b\	8dd\
8F#\L	.	.	4b\	4dd\	8F#\L	.	.	4B,<\	-e,	-e	4b,<\	-son,	-son	4dd,<\	-son	-son	.	4b\	4dd\
8E\	.	.	.	.	8E\	.	.	.	.	.	.	.	.	.	.	.	.	.	.
8D\J	.	.	8dd\	8gg\	8D\J	.	.	8c\	e-	e-	8b\	e-	e-	8gg\	e-	e-	.	8dd\	8gg\
!	!	!	!	!	!LO:LB:g=original	!	!	!LO:LB:g=original	!	!	!	!	!	!LO:LB:g=original	!	!	!	!	!
=28	=28	=28	=28	=28	=28	=28	=28	=28	=28	=28	=28	=28	=28	=28	=28	=28	=28	=28	=28
8G\L	.	1.ryy	8b\L	8dd\L	4.GG/	-lei-	-lei-	8B\L	-lei-	-lei-	2.b\	-lei-	-lei-	8dd\L	-ley-	-lei-	1.ryy	8b\L	8dd\L
8D\	.	.	8g\	8b\	.	.	.	8G\	.	.	.	.	.	8b\	.	.	.	8g\	8b\
8BB\J	.	.	8a\J	8cc\J	.	.	.	8A\J	.	.	.	.	.	8cc\J	.	.	.	8a\J	8cc\J
4GG/	.	.	4b\	4dd\	4GG,</	-son,	-son	4B,<\	-son,	-son	.	.	.	4dd,<\	-son,	-son	.	4b\	4dd\
8r	.	.	8cc\	8gg\	8GG/	e-	e-	8c\	e-	e-	.	.	.	8gg\	e-	e-	.	8dd\	8gg\
8G\L	.	.	8b\L	8dd\L	4.G\	-lei-	-lei-	8B\L	-lei-	-lei-	2.b\	.	.	8dd\L	-lei-	-lei-	.	8b\L	8dd\L
8D\	.	.	8g\	8b\	.	.	.	8G\	.	.	.	.	.	8b\	.	.	.	8g\	8b\
8BB\J	.	.	8a\J	8cc\J	.	.	.	8A\J	.	.	.	.	.	8cc\J	.	.	.	8a\J	8cc\J
4GG/	.	.	4b\	4dd\	4GG,</	-son,	-son	4B\	-son	-son	.	.	.	4dd,<\	-son,	-son	.	4b\	4dd\
*	*	*	*	*	*	*	*	*	*ij	*ij	*	*	*	*	*	*	*	*	*
8r	.	.	8cc\	8gg\	8GG/	e-	e-	8c\	e-	e-	.	.	.	8gg\	e-	e-	.	8dd\	8gg\
=29	=29	=29	=29	=29	=29	=29	=29	=29	=29	=29	=29	=29	=29	=29	=29	=29	=29	=29	=29
*2\right	*	*	*	*	*	*	*	*	*	*	*	*	*	*	*	*	*	*	*
2.G\	.	1.ryy	8b\L	8dd\L	2.G\	-ley-	-lei-	8B\L	-lei-	-lei-	2.b\	.	.	8dd\L	-lei-	-lei-	1.ryy	4b\	4dd\
.	.	.	8cc\	8ee\	.	.	.	8c\	.	.	.	.	.	8ee\	.	.	.	.	.
!	!	!	!	!LO:N:acc=-	!	!	!	!	!	!	!	!	!	!	!	!	!	!	!
.	.	.	8dd\J	8ffn\J	.	.	.	8d\J	.	.	.	.	.	8ffn\J	.	.	.	8b\	8dd\
.	.	.	8dd\L	8ff\L	.	.	.	8d\L	.	.	.	.	.	8ff\L	.	.	.	4b\	4dd\
.	.	.	8cc\	8ee\	.	.	.	8c\	.	.	.	.	.	8ee\	.	.	.	.	.
.	.	.	8b\J	8dd\J	.	.	.	8B\J	.	.	.	.	.	8dd\J	.	.	.	8b\	8dd\
2.G\	.	.	8cc\L	8ee\L	2.G\	.	.	4c,<\	-son,	-son	4cc,<\	-son,	-son	4ee\	.	.	.	4cc\	4ee\
.	.	.	8g\	8cc\	.	.	.	.	.	.	.	.	.	.	.	.	.	.	.
!	!	!	!	!	!	!	!	!	!	!	!	!	!	!	!	!	!	!	!LO:LB:g=original
!	!	!	!LO:N:acc=-	!	!	!	!	!	!	!	!	!	!	!	!	!	!	!	!
.	.	.	8ffn\J	8ccc\J	.	.	.	8c\	e-	e-	8g\	e-	e-	8ee\	.	.	.	8g\	8cc\
!	!	!	!	!	!	!	!	!LO:SIC:s=4c	!	!	!	!	!	!	!	!	!	!	!
.	.	.	4ee\	8gg\L	.	.	.	(4c\	-lei-	-lei-	4g\	-lei-	-lei-	4ee,<\	-son,	-son	.	4g\	4cc\
.	.	.	.	8cc\	.	.	.	.	.	.	.	.	.	.	.	.	.	.	.
!	!	!	!	!	!	!	!	!LO:SIC:v:s=8f	!	!	!	!	!	!	!	!	!	!	!
.	.	.	8ff\	8ccc\J	.	.	.	8f#\)	.	.	8g\	.	.	8gg\	e-	e-	.	8r	8r
=30	=30	=30	=30	=30	=30	=30	=30	=30	=30	=30	=30	=30	=30	=30	=30	=30	=30	=30	=30
4.G\	.	1.ryy	8ee\L	8gg\L	4.G\	.	.	4c,<\	-son,	-son	4g,<\	-son,	-son	4ee\	-lei-	-lei-	1.ryy	00.r	00.r
.	.	.	8cc\	8ee\	.	.	.	.	.	.	.	.	.	.	.	.	.	.	.
!	!	!	!	!LO:N:acc=-	!	!	!	!	!	!	!	!	!	!	!	!	!	!	!
.	.	.	8dd\J	8ffn\J	.	.	.	8c\	e-	e-	8g\	e-	e-	8ee\	.	.	.	.	.
8G\L	.	.	4ee\	4gg\	8G\L	.	.	4c\	-lei-	-lei-	4g\	-lei-	-lei-	4ee,<\	-son,	-son	.	.	.
8A\	.	.	.	.	8A\	.	.	.	.	.	.	.	.	.	.	.	.	.	.
!	!	!	!LO:SIC:v:s=8ff	!	!	!	!	!LO:SIC:v:s=8f	!	!	!	!	!	!	!	!	!	!	!
8B\J	.	.	8ff#\	8ccc\	8B\J	.	.	8f#\	.	.	8g\	.	.	8gg\	e-	e-	.	.	.
!LO:LB:g=original	!	!	!	!	!	!	!	!	!	!	!LO:LB:g=original	!	!	!	!	!	!	!	!
8c\L	.	.	8ee\L	8gg\L	4c\	.	.	4c,<\	-son,	-son	4g\	-son	-son	4ee\	-lei-	-lei-	.	.	.
8G\	.	.	8cc\	8ee\	.	.	.	.	.	.	.	.	.	.	.	.	.	.	.
!	!	!	!	!LO:N:acc=-	!	!	!	!	!	!	!	!	!	!	!	!	!	!	!
8E\J	.	.	8dd\J	8ffn\J	8C/	.	.	8c\	e-	e-	8g\	e-	e-	8ee\	.	.	.	.	.
4C/	.	.	4ee\	4gg\	4C,</	-son,	-son	4c\	-lei-	-lei-	4g\	-lei-	-lei-	4ee,<\	-son	-son	.	.	.
!	!	!	!LO:SIC:v:s=8ff	!	!	!	!	!	!	!	!	!	!	!	!	!	!	!	!
8r	.	.	8ff#\	8aa\	8C/	e-	e-	8e\	-son	-son	8g\	.	.	8gg\	e-	e-	.	.	.
*	*	*	*	*	*	*	*	*	*Xij	*Xij	*	*	*	*	*	*	*	*	*
!	!	!	!LO:LB:g=original	!	!	!	!	!	!	!	!	!	!	!	!	!	!	!	!
=31	=31	=31	=31	=31	=31	=31	=31	=31	=31	=31	=31	=31	=31	=31	=31	=31	=31	=31	=31
8c\L	.	1.ryy	8ee\L	8gg\L	4c\	-lei-	-lei-	8e\L	e-	e-	2.g\	.	.	8gg\L	-ley-	-lei-	1.ryy	.	.
8G\	.	.	8cc\	8ee\	.	.	.	8c\	.	.	.	.	.	8ee\	.	.	.	.	.
!	!	!	!LO:SIC:v:s=8ffJ	!	!	!	!	!LO:SIC:v:s=8fJ	!	!	!	!	!	!	!	!	!	!	!
8E\J	.	.	8ff#\J	8aa\J	8C/	.	.	8f#\J	.	.	.	.	.	8aa\J	.	.	.	.	.
4C/	.	.	8ee\L	8gg\L	4C,</	-son,	-son	8e\L	.	.	.	.	.	8gg\L	.	.	.	.	.
.	.	.	8cc\	8ee\	.	.	.	8c\	.	.	.	.	.	8ee\	.	.	.	.	.
*	*	*	*	*	*	*ij	*ij	*	*	*	*	*	*	*	*	*	*	*	*
!	!	!	!	!LO:N:acc=-	!	!	!	!	!	!	!	!	!	!LO:SIC:v:s=8ffJ	!	!	!	!	!
8r	.	.	8dd\J	8ffn\J	8C/	e-	e-	8d\J	.	.	.	.	.	8ff#\J	.	.	.	.	.
8c\L	.	.	8ee\L	8gg\L	4c\	-lei-	-lei-	8e\L	.	.	2.g\	.	.	8gg\L	.	.	.	.	.
8G\	.	.	8cc\	8ee\	.	.	.	8c\	.	.	.	.	.	8ee\	.	.	.	.	.
!	!	!	!LO:SIC:v:s=8ffJ	!	!	!	!	!LO:SIC:v:s=8fJ	!	!	!	!	!	!	!	!	!	!	!
8E\J	.	.	8ff#\J	8aa\J	8C/	.	.	8f#\J	.	.	.	.	.	8aa\J	.	.	.	.	.
4C/	.	.	8ee\L	8gg\L	4C,</	-son,	-son	8e\L	.	.	.	.	.	8gg\L	.	.	.	.	.
.	.	.	8cc\	8ee\	.	.	.	8c\	.	.	.	.	.	8ee\	.	.	.	.	.
*	*	*	*	*	*	*Xij	*Xij	*	*	*	*	*	*	*	*	*	*	*	*
!	!	!	!	!	!	!	!	!	!	!	!	!	!	!LO:SIC:v:s=8ffJ	!	!	!	!	!
8r	.	.	8dd\J	8ff\J	8C/	e-	e-	8d\J	.	.	.	.	.	8ff#\J	.	.	.	.	.
!	!	!	!	!LO:LB:g=original	!	!	!	!	!	!	!	!	!	!	!	!	!	!	!
=32	=32	=32	=32	=32	=32	=32	=32	=32	=32	=32	=32	=32	=32	=32	=32	=32	=32	=32	=32
2.C/	.	1.ryy	8ee\L	8gg\L	2.C/	-lei-	-lei-	8e\L	.	.	2.g\	.	.	8gg\L	.	.	1.ryy	.	.
.	.	.	8cc\	8ee\	.	.	.	8c\	.	.	.	.	.	8ee\	.	.	.	.	.
!	!	!	!LO:SIC:v:s=8ffJ	!	!	!	!	!LO:SIC:v:s=8fJ	!	!	!	!	!	!	!	!	!	!	!
.	.	.	8ff#\J	8aa\J	.	.	.	8f#\J	.	.	.	.	.	8aa\J	.	.	.	.	.
.	.	.	8ee\L	8gg\L	.	.	.	8e\L	.	.	.	.	.	8gg\L	.	.	.	.	.
.	.	.	8cc\	8ee\	.	.	.	8c\	.	.	.	.	.	8ee\	.	.	.	.	.
!	!	!	!	!LO:SIC:v:s=8ffJ	!	!	!	!	!	!	!	!	!	!LO:SIC:v:s=8ffJ	!	!	!	!	!
.	.	.	8dd\J	8ff#\J	.	.	.	8d\J	.	.	.	.	.	8ff#\J	.	.	.	.	.
4.C/	.	.	8ee\L	8gg\L	4.C/	.	.	8e\L	.	.	2.g\	.	.	8gg\L	.	.	.	.	.
!	!	!	!	!LO:SIC:v:s=8ff	!	!	!	!	!	!	!	!	!	!LO:SIC:v:s=8ff	!	!	!	!	!
.	.	.	8dd\	8ff#\	.	.	.	8d\	.	.	.	.	.	8ff#\	.	.	.	.	.
.	.	.	8cc\J	8ee\J	.	.	.	8c\J	.	.	.	.	.	8ee\J	.	.	.	.	.
8C/L	.	.	8b\L	8ee\L	8C/L	.	.	8c\L	.	.	.	.	.	8ee\L	.	.	.	.	.
!	!	!	!	!	!	!	!	!	!	!	!	!	!	!LO:SIC:v:s=8ff	!	!	!	!	!
8D/	.	.	8a\	8dd\	8D/	.	.	8d\	.	.	.	.	.	8ff#\	.	.	.	.	.
8E/J	.	.	8g\J	8cc\J	8E/J	.	.	8e\J	.	.	.	.	.	8gg\J	.	.	.	.	.
!	!	!	!	!	!	!	!	!LO:LB:g=original	!	!	!	!	!	!LO:LB:g=original	!	!	!	!	!
=33	=33	=33	=33	=33	=33	=33	=33	=33	=33	=33	=33	=33	=33	=33	=33	=33	=33	=33	=33
!	!	!	!	!LO:N:acc=-	!	!	!	!	!	!	!	!	!	!	!	!	!	!	!
4Fn\	.	1.ryy	8a/L	8ffn\L	4Fn\	.	.	4fn\	-ley-	-lei-	4a,<\	-son,	-son	4aa,<\	-son,	-son	1.ryy	.	.
!	!	!	!LO:SIC:v:s=8f	!	!	!	!	!	!	!	!	!	!	!	!	!	!	!	!
.	.	.	8f#/	8cc\	.	.	.	.	.	.	.	.	.	.	.	.	.	.	.
8F\	.	.	8cc/J	8aa\J	8F,<\	-son,	-son	8c\	.	.	8a\	e-	e-	8ffn\	e-	e-	.	.	.
4F\	.	.	4a/	4ff\	4F\	Ky-	Ky-	4c,<\	-son,	-son	4a\	-lei-	-lei-	4ff\	-lei-	-lei-	.	.	.
!	!	!	!LO:SIC:v:s=8ff	!	!	!	!	!	!	!	!	!	!	!	!	!	!	!	!
8F\	.	.	8ff#\	8ccc\	8F\	-ri-	-ri-	8c\	e-	e-	8a\	.	.	8ff\	.	.	.	.	.
!	!	!	!	!LO:SIC:v:s=8ffL	!	!	!	!	!	!	!	!	!	!	!	!	!	!	!
4F\	.	.	8a/L	8gg\L	4F\	-e	-e	4c\	-lei-	-lei-	4a,<\	-son,	-son	4ff,<\	-son,	-son	.	.	.
!	!	!	!LO:SIC:v:s=8f	!	!	!	!	!	!	!	!	!	!	!	!	!	!	!	!
.	.	.	8f#/	8cc\	.	.	.	.	.	.	.	.	.	.	.	.	.	.	.
!LO:SIC:v:s=8FF	!	!	!	!	!LO:SIC:v:s=8FF	!	!	!	!	!	!	!	!	!	!	!	!	!	!
8FF#/	.	.	8cc/J	8aa\J	8FF#/	e-	e-	8c\	.	.	8a\	e-	e-	8ff\	e-	e-	.	.	.
!LO:SIC:v:s=4FF	!	!	!	!	!LO:SIC:v:s=4FF	!	!	!	!	!	!	!	!	!LO:TX:t=P:problem=fragment oznaczony znakiem repetycji	!	!	!	!	!
4FF#/	.	.	4a/	4ff\	4FF#/	-lei-	-lei-	4c,<\	-son,	-son	4a\	-ley-	-lei-	4ff,<\yy	-lei-	-lei-	.	.	.
*	*	*	*	*	*	*	*	*	*ij	*ij	*	*	*	*	*	*	*	*	*
!LO:SIC:v:s=8FF	!	!	!LO:SIC:v:s=8ff	!	!LO:SIC:v:s=8FF	!	!	!	!	!	!	!	!	!	!	!	!	!	!
8FF#/	.	.	8ff#\	8ccc\	8FF#/	-son	-son	8c\	e-	e-	8a\	.	.	8ff\yy	.	.	.	.	.
!	!	!	!	!	!LO:LB:g=original	!	!	!	!	!	!	!	!	!	!	!	!	!	!
=34	=34	=34	=34	=34	=34	=34	=34	=34	=34	=34	=34	=34	=34	=34	=34	=34	=34	=34	=34
!LO:SIC:v:s=4F	!	!	!	!LO:SIC:v:s=8ffL	!LO:SIC:v:s=4FF	!	!	!	!	!	!	!	!	!LO:SIC:v:s=4ff	!	!	!	!	!
4F#\	.	1.ryy	8a/L	8ff#\L	4F#\	Ky-	Ky-	4c\	-lei-	-lei-	4a,<\	-son	-son	4ff#\	.	-son	1.ryy	00.r	00.r
!	!	!	!LO:SIC:v:s=8f	!	!	!	!	!	!	!	!	!	!	!	!	!	!	!	!
.	.	.	8f#/	8cc\	.	.	.	.	.	.	.	.	.	.	.	.	.	.	.
!LO:SIC:v:s=8FF	!	!	!	!	!LO:SIC:v:s=8FF	!	!	!	!	!	!	!	!	!LO:SIC:v:s=8ff	!	!	!	!	!
8FF#/	.	.	8cc/J	8aa\J	8FF#/	-ri-	-ri-	8c\	.	.	8a\	e-	e-	8ff#,<\	-son,	e-	.	.	.
!LO:SIC:v:s=4FF	!	!	!	!LO:SIC:v:s=4ff	!LO:SIC:v:s=4FF	!	!	!	!	!	!	!	!	!LO:SIC:v:s=4ff	!	!	!	!	!
4FF#/	.	.	4a/	4ff#\	4FF#/	-e	-e	4c,<\	-son,	-son	4a\	-lei-	-lei-	4ff#\	e-	-lei-	.	.	.
!	!	!	!LO:SIC:s=8ff#X	!	!LO:SIC:s=8F#X	!	!	!	!	!	!	!	!	!	!	!	!	!	!
8F#\	.	.	8ff#\	8aa\	8F#\	e-	e-	8d\	e-	e-	8a\	-son	-son	8ff#X\	-ley-	.	.	.	.
4.D\	.	.	8ff#\L	8aa\L	4.D\	-lei-	-lei-	4d\	-lei-	-lei-	8a\L	e-	e-	8ff#\L	.	.	.	.	.
.	.	.	8ee\	8gg\	.	.	.	.	.	.	8b\	.	.	8gg\	.	.	.	.	.
.	.	.	8dd\J	8ff#\J	.	.	.	8d\	.	.	8cc\J	.	.	8aa\J	.	.	.	.	.
!	!	!	!	!	!	!	!	!	!	!	!LO:SIC:v:s=8ccL	!	!	!	!	!	!	!	!
8D\L	.	.	8cc\L	8ff#\L	8D\L	.	.	4d,<\	-son,	-son	8b\L	-lei-	-lei-	4dd\	.	.	.	.	.
!	!	!	!	!	!	!	!	!	!	!	!LO:SIC:v:s=8bJ	!	!	!	!	!	!	!	!
8E\	.	.	8b\	8gg\	8E\	.	.	.	.	.	8a\	.	.	.	.	.	.	.	.
!	!	!	!	!	!	!	!	!	!	!	!LO:SIC:v:s=8a	!	!	!	!	!	!	!	!
8F#\J	.	.	8a\J	8aa\J	8F#\J	.	.	8d\	e-	e-	8g\J	-son	-son	8cc\	.	.	.	.	.
=35	=35	=35	=35	=35	=35	=35	=35	=35	=35	=35	=35	=35	=35	=35	=35	=35	=35	=35	=35
!	!	!	!	!	!	!	!	!	!	!	!LO:SIC:s=8gL	!	!	!	!	!	!	!	!
4G\	.	1.ryy	8dd\L	8gg\L	4G\	.	.	4d\	-lei-	-lei-	(8g\L	e-	e-	4b,<\	-son,	-son	1.ryy	.	.
!	!	!	!	!	!	!	!	!	!	!	!LO:SIC:s=8dJ	!	!	!	!	!	!	!	!
.	.	.	8b\	8dd\	.	.	.	.	.	.	8d\J)	.	.	.	.	.	.	.	.
8GG/	.	.	8gg\J	8bb\J	8GG/	.	.	8d\	.	.	8b\	-lei-	-lei-	8b\	e-	e-	.	.	.
4GG/	.	.	4dd\	4gg\	4GG,</	-son,	-son	4d,<\	-son,	-son	4g,<\	-son,	-son	4b\	-ley-	-lei-	.	.	.
8G\	.	.	8gg\	8bb\	8G\	e-	e-	8d\	e-	e-	8b\L	e-	e-	8b\	.	.	.	.	.
!LO:LB:g=original	!	!	!	!	!	!	!	!	!	!	!	!	!	!	!	!	!	!	!
4G\	.	.	8dd\L	8gg\L	4G\	-lei-	-lei-	4d\	-lei-	-lei-	8g\	.	.	4b,<\	-son,	-son	.	.	.
.	.	.	8b\	8dd\	.	.	.	.	.	.	8d\J	.	.	.	.	.	.	.	.
8GG/	.	.	8gg\J	8bb\J	8GG/	.	.	8d\	.	.	8b\	-lei-	-lei-	8b\	e-	e-	.	.	.
4GG/	.	.	4dd\	4gg\	4GG/	-son,	-son	4d\	.	.	4g,<\	-son,	-son	4b\	-ley-	-lei-	.	.	.
8G\	.	.	8gg\	8bb\	8G\	e-	e-	8d\	-son,	-son	8b\	e-	e-	8b\	.	.	.	.	.
!	!	!	!	!	!	!	!	!	!	!	!LO:LB:g=original	!	!	!	!	!	!	!	!
=36	=36	=36	=36	=36	=36	=36	=36	=36	=36	=36	=36	=36	=36	=36	=36	=36	=36	=36	=36
4G\	.	1.ryy	8dd\L	8gg\L	4G\	-lei-	-lei-	4d\	e-	e-	8g\L	-lei-	-lei-	4b,<\	-son,	-son	1.ryy	.	.
.	.	.	8b\	8dd\	.	.	.	.	.	.	8d\J	.	.	.	.	.	.	.	.
8GG/	.	.	8gg\J	8bb\J	8GG/	.	.	8d\	-lei-	-lei-	8b\	.	.	8b\	e-	e-	.	.	.
4GG/	.	.	4dd\	4gg\	4GG,</	-son,	-son	4d\	-son	-son	4g,<\	-son,	-son	4b\	-ley-	-lei-	.	.	.
*	*	*	*	*	*	*ij	*ij	*	*Xij	*Xij	*	*	*	*	*	*	*	*	*
8G\	.	.	8gg\	8bb\	8G\	e-	e-	8d\	e-	e-	8g\	e-	e-	8b\	.	.	.	.	.
4.G\	.	.	8gg\L	8bb\L	4.G\	-lei-	-lei-	8d\L	-lei-	-lei-	4g\	-lei-	-lei-	8b\L	.	.	.	.	.
!	!	!	!LO:SIC:v:s=8ff	!	!	!	!	!	!	!	!	!	!	!	!	!	!	!	!
.	.	.	8ff#\	8aa\	.	.	.	8e\	.	.	.	.	.	8cc\	.	.	.	.	.
!	!	!	!	!	!	!	!	!LO:SIC:v:s=8fJ	!	!	!	!	!	!	!	!	!	!	!
.	.	.	8ee\J	8gg\J	.	.	.	8f#\J	.	.	8g\	.	.	8dd\J	.	.	.	.	.
4G\	.	.	8dd\L	8gg\L	4G,<\	-son,	-son	8B\L	.	.	4g,<\	-son,	-son	8dd\L	.	.	.	.	.
.	.	.	8ee\	8aa\	.	.	.	8c\	.	.	.	.	.	8ee\	.	.	.	.	.
*	*	*	*	*	*	*Xij	*Xij	*	*	*	*	*ij	*ij	*	*	*	*	*	*
!	!	!	!LO:SIC:v:s=8ffJ	!	!	!	!	!	!	!	!	!	!	!	!	!	!	!	!
8G\	.	.	8ff#\J	8bb\J	8G\	e-	e-	8d\J	.	.	8g\	e-	e-	8ffn\J	.	.	.	.	.
!	!	!	!LO:LB:g=original	!	!	!	!	!	!	!	!	!	!	!LO:LB:g=original	!	!	!	!	!
=37	=37	=37	=37	=37	=37	=37	=37	=37	=37	=37	=37	=37	=37	=37	=37	=37	=37	=37	=37
4c\	.	1.ryy	4ee\	4ccc\	4c\	-lei-	-lei-	8c\L	.	.	8g\L	-lei-	-lei-	4ee\	.	.	1.ryy	.	.
.	.	.	.	.	.	.	.	8A\	.	.	8e\	.	.	.	.	.	.	.	.
8C/	.	.	8ee\	8gg\	8C/	.	.	8e\J	.	.	8g\J	.	.	8ee\	.	.	.	.	.
!	!	!	!	!LO:LB:g=original	!	!	!	!	!	!	!	!	!	!	!	!	!	!	!
4C/	.	.	4ee\	4gg\	4C/	-son	-son	4c,<\	-son	-son	4e,<\	-son	-son	4ee,<\	-son,	-son	.	.	.
*	*	*	*	*	*	*	*	*	*	*	*	*Xij	*Xij	*	*	*	*	*	*
8C/	.	.	8ee\	8gg\	8c\	e-	e-	8e\	e-	e-	8e\	e-	e-	8gg\	e-	e-	.	.	.
!	!	!	!	!	!	!	!	!LO:LB:g=original	!	!	!	!	!	!	!	!	!	!	!
!LO:N:vis=2	!	!	!	!	!	!	!	!	!	!	!	!	!	!	!	!	!	!	!
2.C/	.	.	8ee\L	8gg\L	2.c\	-lei-	-lei-	8e\L	-lei-	-lei-	2.e\	-lei-	-lei-	8gg\L	-lei-	-lei-	.	.	.
.	.	.	8cc\	8ee\	.	.	.	8c\	.	.	.	.	.	8ee\	.	.	.	.	.
!	!	!	!	!	!	!	!	!LO:SIC:v:s=8fJ	!	!	!	!	!	!	!	!	!	!	!
.	.	.	8ffn\J	8aa\J	.	.	.	8f#\J	.	.	.	.	.	8ffn\J	.	.	.	.	.
.	.	.	8ee\L	8gg\L	.	.	.	8e\L	.	.	.	.	.	8gg\L	.	.	.	.	.
.	.	.	8cc\	8ee\	.	.	.	8c\	.	.	.	.	.	8ee\	.	.	.	.	.
!	!	!	!	!LO:N:acc=-	!	!	!	!	!	!	!	!	!	!	!	!	!	!	!
.	.	.	8dd\J	8ffn\J	.	.	.	8d\J	.	.	.	.	.	8aa\J	.	.	.	.	.
=38	=38	=38	=38	=38	=38	=38	=38	=38	=38	=38	=38	=38	=38	=38	=38	=38	=38	=38	=38
2.C/	.	1.ryy	8ee\L	8gg\L	2.c\	.	.	8e\L	.	.	2.e\	.	.	8gg\L	.	.	1.ryy	00.r	00.r
.	.	.	8cc\	8ee\	.	.	.	8c\	.	.	.	.	.	8ee\	.	.	.	.	.
!	!	!	!LO:SIC:v:s=8ffJ	!	!	!	!	!LO:SIC:v:s=8fJ	!	!	!	!	!	!	!	!	!	!	!
.	.	.	8ff#\J	8aa\J	.	.	.	8f#\J	.	.	.	.	.	8aa\J	.	.	.	.	.
.	.	.	8ee\L	8gg\L	.	.	.	8e\L	.	.	.	.	.	8gg\L	.	.	.	.	.
.	.	.	8cc\	8ee\	.	.	.	8c\	.	.	.	.	.	8ee\	.	.	.	.	.
!	!	!	!	!LO:N:acc=-	!	!	!	!	!	!	!	!	!	!	!	!	!	!	!
.	.	.	8dd\J	8ffn\J	.	.	.	8d\J	.	.	.	.	.	8ffn\J	.	.	.	.	.
2.C/	.	.	8ee\L	8gg\L	2.c\	.	.	8e\L	.	.	2.e\	.	.	8gg\L	.	.	.	.	.
.	.	.	8cc\	8ee\	.	.	.	8c\	.	.	.	.	.	8ee\	.	.	.	.	.
!	!	!	!LO:SIC:v:s=8ffJ	!	!	!	!	!LO:SIC:v:s=8fJ	!	!	!	!	!	!	!	!	!	!	!
.	.	.	8ff#\J	8aa\J	.	.	.	8f#\J	.	.	.	.	.	8aa\J	.	.	.	.	.
.	.	.	8ee\L	8gg\L	.	.	.	8e\L	.	.	.	.	.	8gg\L	.	.	.	.	.
.	.	.	8cc\	8ee\	.	.	.	8c\	.	.	.	.	.	8ee\	.	.	.	.	.
!	!	!	!	!LO:N:acc=-	!	!	!	!	!	!	!	!	!	!	!	!	!	!	!
.	.	.	8dd\J	8ffn\J	.	.	.	8d\J	.	.	.	.	.	8ffn\J	.	.	.	.	.
=39	=39	=39	=39	=39	=39	=39	=39	=39	=39	=39	=39	=39	=39	=39	=39	=39	=39	=39	=39
2.C/	.	1.ryy	8ee\L	8gg\L	4c\	-son	-son	8e\L	.	.	4e,<\	-son,	-son	8gg\L	.	.	1.ryy	.	.
!	!	!	!	!LO:TX:t=P:problem=♭ above	!	!	!	!	!	!	!	!	!	!	!	!	!	!	!
!	!	!	!	!LO:N:acc=-	!	!	!	!	!	!	!	!	!	!	!	!	!	!	!
.	.	.	8dd\	8ffn\	.	.	.	8d\	.	.	.	.	.	8ffn\	.	.	.	.	.
.	.	.	8cc\J	8ee\J	8E\	e-	e-	8c\J	.	.	8e\	e-	e-	8ee\J	.	.	.	.	.
!	!	!	!LO:SIC:v:s=8fL	!	!LO:SIC:v:s=4F	!	!	!LO:SIC:v:s=8FL	!	!	!	!	!	!	!	!	!	!	!
.	.	.	8f#/L	8dd\L	(4F#\	-lei-	-lei-	8F#/L	.	.	4.g\	-lei-	-lei-	8dd\L	.	.	.	.	.
.	.	.	8e/	8cc\	.	.	.	8E/	.	.	.	.	.	8cc\	.	.	.	.	.
!	!	!	!	!	!LO:SIC:s=8G	!	!	!	!	!	!	!	!	!	!	!	!	!	!
.	.	.	8d/J	8b\J	8G\)	.	.	8D/J	.	.	.	.	.	8cc\J	.	.	.	.	.
2.C/	.	.	4e/	4cc\	4C/	-son	-son	4E/	.	.	4g,<\	-son,	-son	4cc\	.	.	.	.	.
.	.	.	8e/	8cc\	8C/	e-	e-	8E/	.	.	8g\	e-	e-	8gg\	.	.	.	.	.
.	.	.	4e/	4cc\	4C/	-lei-	-lei-	4E/	-son	-son	4g\	-lei-	-lei-	4cc\	-son	-son	.	.	.
.	.	.	8ee\	8gg\	8c\	.	.	8e\	e-	e-	8e\	.	.	8gg\	e-	e-	.	.	.
=40	=40	=40	=40	=40	=40	=40	=40	=40	=40	=40	=40	=40	=40	=40	=40	=40	=40	=40	=40
2.C/	.	1.ryy	8ee\L	8gg\L	2.c\	.	.	8e\L	-lei-	-lei-	2.g,<\	-son,	-son	8gg\L	-lei-	-lei-	1.ryy	.	.
.	.	.	8cc\	8ee\	.	.	.	8c\	.	.	.	.	.	8ee\	.	.	.	.	.
!	!	!	!	!	!	!	!	!LO:SIC:v:s=8fJ	!	!	!	!	!	!	!	!	!	!	!
.	.	.	8ffn\J	8aa\J	.	.	.	8f#\J	.	.	.	.	.	8aa\J	.	.	.	.	.
.	.	.	8ee\L	8gg\L	.	.	.	8e\L	.	.	.	.	.	8gg\L	.	.	.	.	.
.	.	.	8cc\	8ee\	.	.	.	8c\	.	.	.	.	.	8ee\	.	.	.	.	.
!	!	!	!	!LO:N:acc=-	!	!	!	!	!	!	!	!	!	!LO:SIC:v:s=8ffJ	!	!	!	!	!
.	.	.	8dd\J	8ffn\J	.	.	.	8d\J	.	.	.	.	.	8ff#\J	.	.	.	.	.
!	!	!	!	!	!LO:LB:g=original	!	!	!	!	!	!	!	!	!	!	!	!	!	!
2.C/	.	.	8ee\L	8gg\L	2.c\	.	.	8e\L	.	.	2.g\	e-	e-	8gg\L	.	.	.	.	.
.	.	.	8cc\	8ee\	.	.	.	8c\	.	.	.	.	.	8ee\	.	.	.	.	.
!	!	!	!	!	!	!	!	!LO:SIC:v:s=8fJ	!	!	!	!	!	!	!	!	!	!	!
.	.	.	8ff\J	8aa\J	.	.	.	8f#\J	.	.	.	.	.	8aa\J	.	.	.	.	.
.	.	.	8ee\L	8gg\L	.	.	.	8e\L	.	.	.	.	.	8gg\L	.	.	.	.	.
.	.	.	8cc\	8ee\	.	.	.	8c\	.	.	.	.	.	8ee\	.	.	.	.	.
!	!	!	!	!LO:N:acc=-	!	!	!	!	!	!	!	!	!	!LO:SIC:v:s=8ffJ	!	!	!	!	!
.	.	.	8dd\J	8ffn\J	.	.	.	8d\J	.	.	.	.	.	8ff#\J	.	.	.	.	.
!	!	!	!	!	!	!	!	!	!	!	!	!	!	!LO:LB:g=original	!	!	!	!	!
=41	=41	=41	=41	=41	=41	=41	=41	=41	=41	=41	=41	=41	=41	=41	=41	=41	=41	=41	=41
2.C/	.	1.ryy	8ee\L	8gg\L	2.c\	.	.	8e\L	.	.	2.g\	-lei-	-lei-	8gg\L	.	.	1.ryy	.	.
.	.	.	8cc\	8ee\	.	.	.	8c\	.	.	.	.	.	8ee\	.	.	.	.	.
!	!	!	!LO:SIC:v:s=8ffJ	!	!	!	!	!LO:SIC:v:s=8fJ	!	!	!	!	!	!	!	!	!	!	!
.	.	.	8ff#\J	8aa\J	.	.	.	8f#\J	.	.	.	.	.	8aa\J	.	.	.	.	.
.	.	.	8ee\L	8gg\L	.	.	.	8e\L	.	.	.	.	.	8gg\L	.	.	.	.	.
.	.	.	8cc\	8ee\	.	.	.	8c\	.	.	.	.	.	8ee\	.	.	.	.	.
!	!	!	!	!LO:N:acc=-	!	!	!	!	!	!	!	!	!	!LO:SIC:v:s=8ffJ	!	!	!	!	!
.	.	.	8dd\J	8ffn\J	.	.	.	8d\J	.	.	.	.	.	8ff#\J	.	.	.	.	.
2.C/	.	.	8ee\L	8gg\L	4c\	.	-son	8e\L	.	.	4g,<\	-son,	-son	8gg\L	.	.	.	.	.
!	!	!	!	!	!	!	!	!	!	!	!	!	!	!LO:SIC:v:s=8ff	!	!	!	!	!
.	.	.	8dd\	8ff\	.	.	.	8d\	.	.	.	.	.	8ff#\	.	.	.	.	.
.	.	.	8cc\J	8ee\J	8C/	-son	e-	8c\J	.	.	8a\	e-	e-	8ee\J	.	.	.	.	.
!	!	!	!LO:SIC:v:s=8fL	!	!	!	!	!LO:SIC:v:s=8FL	!	!	!	!	!	!	!	!	!	!	!
.	.	.	8f#/L	8dd\L	4G\	e-	-lei-	8F#/L	.	.	4.g\	-lei-	-lei-	8dd\L	.	.	.	.	.
.	.	.	8e/	8cc\	.	.	.	8E/	.	.	.	.	.	8cc\	.	.	.	.	.
.	.	.	8d/J	8b\J	8GG/	-lei-	.	8D/J	.	.	.	.	.	8b\J	.	.	.	.	.
!	!	!	!	!	!	!	!	!	!	!	!LO:LB:g=original	!	!	!	!	!	!	!	!
=42	=42	=42	=42	=42	=42	=42	=42	=42	=42	=42	=42	=42	=42	=42	=42	=42	=42	=42	=42
!	!	!	!	!	!	!	!	!	!	!	!	!	!	!	!	!	!	!LO:N:vis=2	!LO:N:vis=2
8C\L	.	1.ryy	4e/	4cc\	4C,</	-son,	-son	4E/	.	.	4g,<\	-son,	-son	4cc\	.	.	1.ryy	2.r	2.r
8E\	.	.	.	.	.	.	.	.	.	.	.	.	.	.	.	.	.	.	.
*	*	*	*	*	*	*ij	*ij	*	*	*	*	*ij	*ij	*	*	*	*	*	*
8G\J	.	.	8e/	8cc\	8C/	e-	e-	8E/	.	.	8g\	e-	e-	8cc\	.	.	.	.	.
4C/	.	.	4e/	4cc\	4C/	-lei-	-lei-	4E/	-son	-son	4g\	-lei-	-lei-	4cc,<\	-son,	-son	.	.	.
!	!	!	!	!	!LO:SIC:v:s=8D	!	!	!	!	!	!LO:SIC:v:s=8f#	!	!	!LO:SIC:v:s=8dd	!	!	!	!	!
8r	.	.	8f#X/	8dd\	8C/	-son,	.	8F#/	e-	e-	8g\	.	.	8ee\	e-	e-	.	.	.
*	*	*	*	*	*	*Xij	*Xij	*	*	*	*	*	*	*	*	*	*	*	*
4GG/	.	.	8g/L	8b\L	4G\	e-	-son	4G/	-lei-	-lei-	4d,<\	-son	-son	4b\	-ley-	-lei-	.	4g\	4b\
*	*	*	*	*	*	*	*	*	*	*	*	*Xij	*Xij	*	*	*	*	*	*
.	.	.	8b/	8dd\	.	.	.	.	.	.	.	.	.	.	.	.	.	.	.
8r	.	.	8b/J	8dd\J	8r	.	.	8r	.	.	8r	.	.	8r	.	.	.	8r	8r
4D/	.	.	8f#/L	8a\L	4D/	-lei-	e-	4F#/	.	.	4d\	e-	e-	4a\	.	.	.	4d/	4a\
.	.	.	8a/	8dd\	.	.	.	.	.	.	.	.	.	.	.	.	.	.	.
8r	.	.	8a/J	8dd\J	8r	.	.	8r	.	.	8r	.	.	8r	.	.	.	8r	8r
!LO:LB:g=original	!	!	!LO:LB:g=original	!LO:LB:g=original	!	!	!	!LO:LB:g=original	!	!	!	!	!	!	!	!	!	!	!
=43	=43	=43	=43	=43	=43	=43	=43	=43	=43	=43	=43	=43	=43	=43	=43	=43	=43	=43	=43
4GG/	.	1.ryy	8g/L	8b\L	4G\	.	-lei-	4G/	-son	-son	4d\	.	-lei-	4b\	-son	-son	1.ryy	4g\	4b\
.	.	.	8b/	8dd\	.	.	.	.	.	.	.	.	.	.	.	.	.	.	.
8r	.	.	8b/J	8dd\J	8r	.	.	8r	.	.	8r	.	.	8r	.	.	.	8r	8r
4D\	.	.	8f#/L	8a\L	4D/	.	.	4F#/	e-	e-	4d\	.	.	4a\	e-	e-	.	4d/	4a\
.	.	.	8a/	8dd\	.	.	.	.	.	.	.	.	.	.	.	.	.	.	.
8r	.	.	8a/J	8dd\J	8r	.	.	8r	.	.	8r	.	.	8r	.	.	.	8r	8r
4GG/	.	.	8g/L	8b\L	4G\	.	.	4G/	-lei-	-lei-	4d\	.	.	4b\	-ley-	-lei-	.	4g\	4b\
.	.	.	8b/	8dd\	.	.	.	.	.	.	.	.	.	.	.	.	.	.	.
8r	.	.	8b/J	8dd\J	8r	.	.	8r	.	.	8r	.	.	8r	.	.	.	8r	8r
4D\	.	.	8f#/L	8a\L	4D/	.	.	4F#/	.	.	4d\	.	.	4a\	.	.	.	4d/	4a\
.	.	.	8a/	8dd\	.	.	.	.	.	.	.	.	.	.	.	.	.	.	.
8r	.	.	8a/J	8dd\J	8r	.	.	8r	.	.	8r	.	.	8r	.	.	.	8r	8r
!	!	!	!	!	!	!	!	!	!	!	!	!	!	!	!	!	!	!LO:LB:g=original	!
=44	=44	=44	=44	=44	=44	=44	=44	=44	=44	=44	=44	=44	=44	=44	=44	=44	=44	=44	=44
4.GG/	.	1.ryy	4g/	8b\L	4G\	.	.	4G,</	-son,	-son	2.d\	-lei-	.	4b,<\	-son,	-son	1.ryy	4g\	4b\
.	.	.	.	8dd\	.	.	.	.	.	.	.	.	.	.	.	.	.	.	.
.	.	.	8f#/	8dd\J	8D\	.	.	8F#/	e-	e-	.	.	.	8a\	e-	e-	.	8d/	8a\
4BB/	.	.	8g/L	8b/L	8G\L	.	.	8G/L	-lei-	-lei-	.	.	.	8b\L	-lei-	-lei-	.	8g\L	8b\L
.	.	.	8f#/	8a/	8D\	.	.	8F#/	.	.	.	.	.	8a\	.	.	.	8d\	8a\
8C/	.	.	8e/J	8g/J	8BB\J	.	.	8E/J	.	.	.	.	.	8g\J	.	.	.	8B\J	8g\J
4D/	.	.	4d/	8f#/L	8GG/	-son	-son	4F#/	.	.	4d,<\	-son,	-son	4a\	.	.	.	8d/L	8a\L
.	.	.	.	8g/	4D/	Ky-	Ky-	.	.	.	.	.	.	.	.	.	.	8d/	8a\
*	*	*	*	*	*	*	*	*	*	*	*	*ij	*ij	*	*	*	*	*	*
8D/	.	.	8d/	8a/J	.	.	.	8F#/	.	.	8d\	e-	e-	8a\	.	.	.	8d/J	8a\J
4D/	.	.	4d/	4d/	8D/	-ri-	-ri-	4F#/	-son	-son	4d\	-lei-	-lei-	4a\	.	-son	.	4d/	4a\
.	.	.	.	.	4D/	-e	-e	.	.	.	.	.	.	.	.	.	.	.	.
8DD/	.	.	8A/	8d/	.	.	.	8r	.	.	8d\	.	.	8d/	-son	e-	.	8r	8r
=45	=45	=45	=45	=45	=45	=45	=45	=45	=45	=45	=45	=45	=45	=45	=45	=45	=45	=45	=45
!	!	!	!	!	!LO:MO:mod=4.r	!	!	!LO:MO:mod=4r	!	!	!	!	!	!	!	!	!	!	!
4.GG/	.	1.ryy	4B/	8g/L	4r	.	.	8r	.	.	4B/	-son	-son	8g/L	e-	-lei-	1.ryy	4B/	8g\L
!	!	!	!	!	!	!	!	!LO:MO:mod=.	!	!	!	!	!	!	!	!	!	!	!
.	.	.	.	8d/	.	.	.	8r	.	.	.	.	.	8d/	.	.	.	.	8d\
!	!	!	!	!	!LO:MO:mod=.	!	!	!	!	!	!	!	!	!	!	!	!	!	!
.	.	.	8d/	8a/J	8r	.	.	8D/	e-	e-	8d\	e-	e-	8a/J	.	.	.	8r	8a\J
!	!	!	!	!	!LO:MO:mod=4r	!	!	!	!	!	!	!	!	!	!	!	!	!	!
4.GG/	.	.	8g/L	8b/L	8r	.	.	8G/L	-lei-	-lei-	4g\	-lei-	-lei-	8b\L	.	.	.	4r	8b\L
!	!	!	!	!	!LO:MO:mod=.	!	!	!	!	!	!	!	!	!	!	!	!	!	!
.	.	.	8d/	8g/	8r	.	.	8D/	.	.	.	.	.	8g\	.	.	.	.	8g\
.	.	.	8a/J	8cc/J	8D\	e-	e-	8A/J	.	.	8f#\	.	.	8cc\J	.	.	.	8d/	8a\J
!	!	!	!	!	!	!	!	!	!	!	!LO:N:vis=4.	!	!	!	!	!	!	!	!
8GG/L	.	.	8b/L	4dd\	8G\L	-lei-	-lei-	4B\	.	.	4g,<\	-son	-son	4dd\	-lei-	.	.	8g\L	8b\L
8DD/	.	.	8g/	.	8D\	.	.	.	.	.	.	.	.	.	.	.	.	8d\	8g\
*	*	*	*	*	*	*	*	*	*	*	*	*Xij	*Xij	*	*	*	*	*	*
8GG/J	.	.	8a/J	8dd\	8A\J	.	.	8B\	.	.	8f#\	e-	e-	8dd\	.	.	.	8a\J	8cc\J
4.GG/	.	.	4b\	4dd\	4B,<\	-son,	-son	4B\	-son	-son	8g\L	-lei-	-lei-	4dd\	-son	-son	.	4b\	4dd\
.	.	.	.	.	.	.	.	.	.	.	8d\J	.	.	.	.	.	.	.	.
.	.	.	8cc\	8gg\	8G\	e-	e-	8c\	e-	e-	8a\	.	.	8gg\	e-	e-	.	8g\	8b\
=46	=46	=46	=46	=46	=46	=46	=46	=46	=46	=46	=46	=46	=46	=46	=46	=46	=46	=46	=46
8G\L	.	1.ryy	4b\	4dd\	4G\	-lei-	-lei-	4B\	-lei-	-lei-	4g,<\	-son,	-son	4dd\	-ley-	-lei-	1.ryy	8b\L	8dd\L
8D\	.	.	.	.	.	.	.	.	.	.	.	.	.	.	.	.	.	8g\	8b\
*	*	*	*	*	*	*	*	*	*	*	*	*ij	*ij	*	*	*	*	*	*
8BB\J	.	.	8b\	8dd\	8G\	.	.	8B\	.	.	8g\	e-	e-	8dd\	.	.	.	8a\J	8cc\J
4GG/	.	.	4b\	4dd\	4G,<\	-son	-son	4B\	-son	-son	4g\	-lei-	-lei-	4dd,<\	-son,	-son	.	4b\	4dd\
*	*	*	*	*	*	*	*	*	*ij	*ij	*	*	*	*	*	*	*	*	*
!	!	!	!	!	!	!	!	!	!	!	!	!	!	!LO:LB:g=original	!	!	!	!	!
8r	.	.	8cc\	8gg\	8G\	e-	e-	8c\	e-	e-	8g\	.	.	8gg\	e-	e-	.	8cc\	8ee\
!	!	!	!	!	!LO:LB:g=original	!	!	!	!	!	!	!	!	!	!	!	!	!	!
8G\L	.	.	4b\	4dd\	4G\	-lei-	-lei-	4B\	-lei-	-lei-	4g,<\	-son,	-son	4dd\	-ley-	-lei-	.	8b\L	8dd\L
8D\	.	.	.	.	.	.	.	.	.	.	.	.	.	.	.	.	.	8g\	8b\
*	*	*	*	*	*	*	*	*	*	*	*	*Xij	*Xij	*	*	*	*	*	*
8BB\J	.	.	8b\	8dd\	8G\	.	.	8B\	.	.	8g\	e-	e-	8dd\	.	.	.	8a\J	8cc\J
4GG/	.	.	4b\	4dd\	4G,<\	-son,	-son	4B,<\	-son	-son	4g\	-lei-	-lei-	4dd,<\	-son,	-son	.	4b\	4dd\
*	*	*	*	*	*	*	*	*	*Xij	*Xij	*	*	*	*	*	*	*	*	*
8r	.	.	8cc\	8gg\	8G\	e-	e-	8c\	e-	e-	8cc\	.	.	8gg\	e-	e-	.	8cc\	8ee\
!	!	!	!	!	!	!	!	!	!	!	!LO:LB:g=original	!	!	!	!	!	!	!	!
=47	=47	=47	=47	=47	=47	=47	=47	=47	=47	=47	=47	=47	=47	=47	=47	=47	=47	=47	=47
4.GG/	.	1.ryy	8b/L	8dd\L	2.G\	-lei-	-lei-	8B\L	-lei-	-lei-	2.b,<\	-son,	-son	8dd\L	-lei-	-lei-	1.ryy	4b\	4dd\
.	.	.	8g/	8b\	.	.	.	8G\	.	.	.	.	.	8b\	.	.	.	.	.
.	.	.	8a/J	8ee\J	.	.	.	8A\J	.	.	.	.	.	8cc\J	.	.	.	8r	8r
4.GG/	.	.	8b/L	8dd\L	.	.	.	8B\L	.	.	.	.	.	8dd\L	.	.	.	4b\	4dd\
.	.	.	8g/	8b\	.	.	.	8G\	.	.	.	.	.	8b\	.	.	.	.	.
.	.	.	8cc/J	8gg\J	.	.	.	8c\J	.	.	.	.	.	8ee\J	.	.	.	8r	8r
4.GG/	.	.	8b/L	8dd\L	2.G\	.	.	8B\L	.	.	2.b\	e-	e-	8dd\L	.	.	.	4b\	4dd\
.	.	.	8g/	8b\	.	.	.	8G\	.	.	.	.	.	8b\	.	.	.	.	.
.	.	.	8a/J	8cc\J	.	.	.	8A\J	.	.	.	.	.	8cc\J	.	.	.	8r	8r
4.GG/	.	.	8b/L	8dd\L	.	.	.	8B\L	.	.	.	.	.	8dd\L	.	.	.	4b\	4dd\
.	.	.	8g/	8b\	.	.	.	8G\	.	.	.	.	.	8b\	.	.	.	.	.
.	.	.	8cc/J	8ee\J	.	.	.	8c\J	.	.	.	.	.	8ee\J	.	.	.	8r	8r
=48	=48	=48	=48	=48	=48	=48	=48	=48	=48	=48	=48	=48	=48	=48	=48	=48	=48	=48	=48
4.GG/	.	1.ryy	8b/L	8dd\L	2.G\	.	.	8B\L	.	.	2.b\	-lei-	-lei-	8dd\L	.	.	1.ryy	4b\	4dd\
.	.	.	8g/	8b\	.	.	.	8G\	.	.	.	.	.	8b\	.	.	.	.	.
.	.	.	8a/J	8cc\J	.	.	.	8A\J	.	.	.	.	.	8cc\J	.	.	.	8r	8r
4.GG/	.	.	8b/L	8dd\L	.	.	.	8B\L	.	.	.	.	.	8dd\L	.	.	.	4b\	4dd\
.	.	.	8g/	8b\	.	.	.	8G\	.	.	.	.	.	8b\	.	.	.	.	.
.	.	.	8cc/J	8gg\J	.	.	.	8c\J	.	.	.	.	.	8gg\J	.	.	.	8r	8r
!	!	!	!	!	!	!	!	!	!	!	!	!	!	!	!	!	!	!	!LO:LB:g=original
4.GG/	.	.	8b/L	8dd\L	4.G\	.	.	8B\L	.	.	4.b\	-son	-son	8dd\L	.	.	.	4b\	4dd\
.	.	.	8g/	8b\	.	.	.	8G\	.	.	.	.	.	8b\	.	.	.	.	.
.	.	.	8a/J	8cc\J	.	.	.	8A\J	.	.	.	.	.	8cc\J	.	.	.	8r	8r
4GG/	.	.	4b/	4dd\	4G\	-son	-son	4B\	.	.	4b\	Ky-	Ky-	4dd\	-son	-son	.	4b\	4dd\
8D/	.	.	8a/	8cc\	8D/	e-	e-	8A\	.	.	8a\	-ri-	-ri-	8cc\	e-	e-	.	8r	8r
!LO:LB:g=original	!	!	!LO:LB:g=original	!LO:LB:g=original	!	!	!	!LO:LB:g=original	!	!	!	!	!	!	!	!	!	!	!
=49	=49	=49	=49	=49	=49	=49	=49	=49	=49	=49	=49	=49	=49	=49	=49	=49	=49	=49	=49
4G\	.	1.ryy	8g/L	8b/L	4G\	-lei-	-lei-	4G/	-son	-son	4g,<\	-e,	-e	8b\L	-lei-	-lei-	1.ryy	8g\L	8b\L
.	.	.	8f#/	8a/	.	.	.	.	.	.	.	.	.	8a\	.	.	.	8a\	8cc\
8GG/	.	.	8e/J	8g/J	8GG/	.	.	8B\	e-	e-	8e\	e-	e-	8g\J	.	.	.	8b\J	8dd\J
4D/	.	.	4d/	8a/L	4D,</	-son,	-son	4.d\	-lei-	-lei-	4d\	-lei-	-lei-	8a\L	.	.	.	8a\L	8cc\L
.	.	.	.	8g/	.	.	.	.	.	.	.	.	.	8g\	.	.	.	8g\	8b\
*	*	*	*	*	*	*ij	*ij	*	*	*	*	*	*	*	*	*	*	*	*
8DD/	.	.	8c/	8f#/J	8D/	e-	e-	.	.	.	8c/	.	.	8f#\J	.	.	.	8d\J	8a\J
8GG/L	.	.	4B/	4g/	4GG/	-lei-	-lei-	4d\	.	.	4B,</	-son,	-son	4g/	.	.	.	4g\	4b\
8BB/	.	.	.	.	.	.	.	.	.	.	.	.	.	.	.	.	.	.	.
8D/J	.	.	8B/	8g/	8GG/	.	.	8d\	.	.	8B/	e-	e-	8g/	.	.	.	8g\	8b\
4G\	.	.	4B/	4g/	4GG,</	-son,	-son	4d,<\	-son,	-son	4B/	-lei-	-lei-	4g,</	-son,	-son	.	4g\	4b\
*	*	*	*	*	*	*Xij	*Xij	*	*	*	*	*	*	*	*	*	*	*	*
8GG/	.	.	8b\	8dd\	8G\	e-	e-	8c\	e-	e-	8b\	.	.	8dd\	e-	e-	.	8b\	8dd\
=50	=50	=50	=50	=50	=50	=50	=50	=50	=50	=50	=50	=50	=50	=50	=50	=50	=50	=50	=50
4.GG/	.	1.ryy	8b\L	8dd\L	2.G\	-lei-	-lei-	8B\L	-lei-	-lei-	2.b\	.	.	8dd\L	-lei-	-lei-	1.ryy	4b\	4dd\
.	.	.	8g\	8b\	.	.	.	8G\	.	.	.	.	.	8b\	.	.	.	.	.
.	.	.	8a\J	8cc\J	.	.	.	8A\J	.	.	.	.	.	8cc\J	.	.	.	8r	8r
4GG/	.	.	8b\L	8dd\L	.	.	.	8B\L	.	.	.	.	.	8dd\L	.	.	.	4b\	4dd\
.	.	.	8g\	8b\	.	.	.	8G\	.	.	.	.	.	8b\	.	.	.	.	.
8r	.	.	8cc\J	8ee\J	.	.	.	8c\J	.	.	.	.	.	8ee\J	.	.	.	8r	8r
4GG/	.	.	8b\L	8dd\L	2.G\	.	.	8B\L	.	.	2.b\	.	.	8dd\L	.	.	.	4b\	4dd\
.	.	.	8g\	8b\	.	.	.	8G\	.	.	.	.	.	8b\	.	.	.	.	.
8r	.	.	8a\J	8cc\J	.	.	.	8A\J	.	.	.	.	.	8cc\J	.	.	.	8r	8r
4GG/	.	.	8b\L	8dd\L	.	.	.	8B\L	.	.	.	.	.	8dd\L	.	.	.	4b\	4dd\
.	.	.	8g\	8b\	.	.	.	8G\	.	.	.	.	.	8b\	.	.	.	.	.
8r	.	.	8cc\J	8gg\J	.	.	.	8c\J	.	.	.	.	.	8gg\J	.	.	.	8r	8r
!	!	!	!	!	!	!	!	!	!	!	!	!	!	!LO:LB:g=original	!	!	!	!LO:LB:g=original	!
=51	=51	=51	=51	=51	=51	=51	=51	=51	=51	=51	=51	=51	=51	=51	=51	=51	=51	=51	=51
4GG/	.	1.ryy	8b\L	8dd\L	4.G\	.	.	8B\L	.	.	4.b\	-son	-son	8dd\L	.	.	1.ryy	4b\	4dd\
.	.	.	8g\	8b\	.	.	.	8G\	.	.	.	.	.	8b\	.	.	.	.	.
8r	.	.	8a\J	8cc\J	.	.	.	8A\J	.	.	.	.	.	8cc\J	-son	.	.	8r	8r
4GG/	.	.	8b\L	4dd\	4G\	-son	-son	4B\	.	.	4b\	Ky-	Ky-	4dd\	e-	-son	.	4b\	4dd\
.	.	.	8a\	.	.	.	.	.	.	.	.	.	.	.	.	.	.	.	.
8D/	.	.	8cc\J	8cc\	8D/	e-	e-	8A\	.	.	8a\	-ri-	-ri-	8cc\	-lei-	e-	.	8a\	8cc\
4G\	.	.	8g/L	8b/L	4G\	-lei-	-lei-	4G/	-son	-son	8g\L	-e	-e	8b\L	.	-lei-	.	4g\	8b\L
.	.	.	8f#/	8a/	.	.	.	.	.	.	8f#\	.	.	8a\	.	.	.	.	8cc\
8GG/	.	.	8e/J	8g/J	8B\	.	.	8B\	e-	e-	8e\J	.	.	8g\J	.	.	.	8d/	8dd\J
4D/	.	.	8c/L	8a/L	4d\	.	.	4.d\	-lei-	-lei-	4d\	e-	e-	8a\L	.	.	.	4d/	8cc\L
.	.	.	8B/	8g/	.	.	.	.	.	.	.	.	.	8g\	.	.	.	.	8b\
8DD/	.	.	8A/J	8f#/J	8D/	.	.	.	.	.	8c/	-lei-	-lei-	8f#\J	.	.	.	8d/	8a\J
=52	=52	=52	=52	=52	=52	=52	=52	=52	=52	=52	=52	=52	=52	=52	=52	=52	=52	=52	=52
*	*	*	*^	*	*	*	*	*	*	*	*	*	*	*	*	*	*	*	*
4GG/	.	1.ryy	4B/	2.ryyyy	4g/	4G\	.	.	4d\	-son	-son	4B,</	-son,	-son	4g,</	-son,	-son	1.ryy	4B/	4g\
8GG/	.	.	8B/	.	8g/	8G\	.	.	8d\	e-	e-	8B/	e-	e-	8g/	e-	e-	.	8B/	8g\
4GG/	.	.	4B/	.	4g/	4G,<\	-son,	-son	4d\	-lei-	-lei-	4B/	-lei-	-lei-	4g/	-ley-	-lei-	.	4B/	4g\
8r	.	.	8B/	.	16a/LL	8G\	e-	e-	8d\	.	.	8d\	.	.	16a/LL	.	.	.	8r	8r
.	.	.	.	.	16b/JJ	.	.	.	.	.	.	.	.	.	16b/JJ	.	.	.	.	.
!	!	!	!	!	!	!	!	!	!	!	!	!LO:LB:g=original	!	!	!	!	!	!	!	!
4GG/	.	.	4d/	4B\	4g/	4G\	-lei-	-lei-	4d\	-son	-son	4B/	-son	-son	4g,</	-son,	-son	.	4B/	4g\
*	*	*	*	*	*	*	*	*	*	*	*	*	*ij	*ij	*	*	*	*	*	*
8GG/	.	.	8d/	8B\	8g/	8G\	.	.	8d\	e-	e-	8B/	e-	e-	8g/	e-	e-	.	8B/	8g\
4GG/	.	.	4d/	4B\	4g/	4G,<\	-son,	-son	4d\	-lei-	-lei-	4B/	-lei-	-lei-	4g/	-ley-	-lei-	.	4B/	4g\
!	!	!	!	!	!LO:TX:b:mod= :t=h	!	!	!	!	!	!	!	!	!	!	!	!	!	!	!
8r	.	.	8d/	8B\	16b/LL	8G\	e-	e-	8d\	.	.	8d\	.	.	16b\LL	.	.	.	8r	8r
!	!	!	!	!	!LO:TX:b:mod= :t=e	!	!	!	!	!	!	!	!	!	!	!	!	!	!	!
.	.	.	.	.	16dd/JJ	.	.	.	.	.	.	.	.	.	16dd\JJ	.	.	.	.	.
!	!	!	!	!	!	!LO:LB:g=original	!	!	!	!	!	!	!	!	!	!	!	!	!	!
=53	=53	=53	=53	=53	=53	=53	=53	=53	=53	=53	=53	=53	=53	=53	=53	=53	=53	=53	=53	=53
4GG/	.	2.ryy	4d/	4B\	4g/	4G\	-lei-	-lei-	4d\	-son	-son	4B,</	-son	-son	4g,</	-son,	-son	2.ryy	4B/	4g\
*	*	*	*	*	*	*	*	*	*	*	*	*	*Xij	*Xij	*	*	*	*	*	*
8GG/	.	.	8d/	8B\	8g/	8G\	.	.	8d\	e-	e-	8B/	e-	e-	8g/	e-	e-	.	8B/	8g\
4GG/	.	.	4d/	4B\	4g/	4G\	.	.	4d\	-lei-	-lei-	4B/	-lei-	-lei-	4g/	-lei-	-lei-	.	4B/	4g\
8r	.	.	8d/	8B\	16b/LL	8G\	.	.	8d\	.	.	8d\	.	.	16b\LL	.	.	.	8r	8r
.	.	.	.	.	16dd/JJ	.	.	.	.	.	.	.	.	.	16dd\JJ	.	.	.	.	.
*custos:C#	*	*	*	*	*	*	*	*	*	*	*	*	*	*	*	*	*	*	*	*
*	*	*	*v	*v	*	*	*	*	*	*	*	*	*	*	*	*	*	*	*	*
=-	=-	=-	=-	=-	=-	=-	=-	=-	=-	=-	=-	=-	=-	=-	=-	=-	=-	=-	=-
!!!OMD:
!!!OMD-mod: Adagio
*M4/4	*	*M4/4	*M4/4	*M4/4	*M4/4	*	*	*M4/4	*	*	*M4/4	*	*	*M4/4	*	*	*M4/4	*M4/4	*M4/4
*met(C.)	*	*met(c)	*met(c)	*met(c)	*met(c)	*	*	*met(c)	*	*	*met(c)	*	*	*met(c)	*	*	*met(c)	*met(C.)	*met(C.)
*mmet(c)	*	*mmet(c)	*mmet(c)	*mmet(c)	*mmet(c)	*	*	*mmet(c)	*	*	*mmet(c)	*	*	*mmet(c)	*	*	*mmet(c)	*mmet(c)	*mmet(c)
!LO:TX:b:i:mod= :t=Adagio	!	!	!LO:TX:b:i:mod= :t=Adagio	!LO:TX:b:i:mod= :t=Adagio.	!LO:TX:a:i:mod= :t=Adagio	!	!	!LO:MO:mod=2e@	!	!	!	!	!	!	!	!	!	!LO:TX:a:i:mod= :t=Adagio.	!
2C#X/	5 3	2ryy	2ee\	2gg\	2C#X/	.	-son	2r	.	-son	2e\	-son	-son	2gg\	-son	-son	2ryy	2g\	2cc#X\
=54	=54	=54	=54	=54	=54	=54	=54	=54	=54	=54	=54	=54	=54	=54	=54	=54	=54	=54	=54
!	!	!	!	!	!	!	!	!	!	!	!	!LO:SIC:s=e-	!LO:SIC:s=e-	!	!	!	!	!	!LO:SIC:v:s=1cc#
1C#X	7 3	1ryy	1ee	1gg	1C#X	-son	e-	2e\	.	[e-	2a\	E-	E-	2gg\	e-	e-	1ryy	2g\	1cc
.	.	.	.	.	.	.	.	2g\	.	.	4a\	-lei-	-lei-	2ee\	.	.	.	2g\	.
.	.	.	.	.	.	.	.	.	.	.	4a\	.	.	.	.	.	.	.	.
=55	=55	=55	=55	=55	=55	=55	=55	=55	=55	=55	=55	=55	=55	=55	=55	=55	=55	=55	=55
4Cn/	6 r4#	1ryy	4dd\	4ff#\	4Cn/	e-	-lei-	4f#\	.	-lei]-	4a,<\	-son,	-son	4dd\	-lei-	-lei-	1ryy	4a\	4dd\
8BB/L	.	.	4b\	4gg\	8BB/L	-lei-	.	4d\	.	.	4g\	e-	e-	4b\	.	.	.	4g\	4b\
8GG/J	.	.	.	.	8GG/J	.	.	.	.	.	.	.	.	.	.	.	.	.	.
!	!	!	!	!	!	!	!	!	!	!	!LO:SIC:v:s=4g	!	!	!	!	!	!	!	!
4D\	.	.	2dd\	4gg\	4D/	.	.	2d\	.	.	4a\	-lei-	-lei-	4b\	-son	-son	.	4d/	4a\
4GG/	.	.	.	8ff#\L	4GG/	.	.	.	.	.	4b\	.	.	8a\L	e-	e-	.	4g\	4b\
.	.	.	.	8ee\J	.	.	.	.	.	.	.	.	.	8g\J	.	.	.	.	.
=56	=56	=56	=56	=56	=56	=56	=56	=56	=56	=56	=56	=56	=56	=56	=56	=56	=56	=56	=56
!	!	!	!	!	!	!	!	!	!	!	!LO:MO:mod=1f#@	!	!	!	!	!	!	!	!
2D\	.	1ryy	1dd	1ff#	1D	.	.	1d	.	.	2g\	.	.	2a\	-ley-	-lei-	1ryy	1d	4a\
.	.	.	.	.	.	.	.	.	.	.	.	.	.	.	.	.	.	.	4dd\
!	!	!	!	!	!	!	!	!	!	!	!LO:MO:mod=.	!	!	!	!	!	!	!	!
2DD/	.	.	.	.	.	.	.	.	.	.	2f#\	.	.	2cc\	.	.	.	.	2cc\
!	!	!	!LO:LB:g=original	!	!	!	!	!	!	!	!	!	!	!	!	!	!	!	!LO:LB:g=original
=57	=57	=57	=57	=57	=57	=57	=57	=57	=57	=57	=57	=57	=57	=57	=57	=57	=57	=57	=57
!	!	!	!LO:SIC:s=1dd;	!	!LO:SIC:s=1GG;	!	!	!LO:SIC:v:s=1d;	!	!	!	!	!	!LO:SIC:s=1b;	!	!	!	!LO:SIC:s=1g;	!LO:SIC:s=1b;
1GG;	.	1ryy	1dd	1gg 1b 1d 1G;	1GG	-son	-son.	1c;	-son	-son.	1g;	-son.	-son.	1b	-son.	-son.	1ryy	1g	1b
!	!	!	!LO:MO:mod===	!	!LO:MO:mod===	!	!	!	!	!	!	!	!	!LO:MO:mod===	!	!	!	!LO:MO:mod===	!
==	==	==	==;;	==	==;;	==	==	==	==	==	==	==	==	==;;	==	==	==	==;	==
*-	*-	*-	*-	*-	*-	*-	*-	*-	*-	*-	*-	*-	*-	*-	*-	*-	*-	*-	*-
!!!system-decoration: [(bras)][vox][(str)]<klav>
!!!RDF**kern: > = above
!!!RDF**kern: < = below
!!LO:MO:mod
!! !!!RDF**kern: @ = marked note, color=grey
!!LO:MO:end
!!!filter-modern: shed -e "s/^(\d+[\/\\]right)/$1yy/I" | shed -k -e "s/,</$1/D" | shed -e "s/LO:N:/LO:n:$1/L" | shed -e "s/TX(.*):t=P:/tx$1:t=P:/LG" | shed -k -e "s/([^a-gA-Gn#X-])[<>]/$1/g" | sic -sq | modori -m | autostem -r | tie -s | humtr -p | shed -e "s/yy//"
!!!ENC: Berenika Jozajtis
!!!END: 2020-07-27
!!!EED: Andrzej Kubiczek
!!!EEV: 2023-07-22
!!!ENC-modern: Andrzej Kubiczek
!!!END-modern: 2023-07-22
